<?xml version="1.0" encoding="UTF-8"?>
<map version="1.10" tiledversion="1.12.1" orientation="orthogonal" renderorder="right-down" width="256" height="20" tilewidth="16" tileheight="16" infinite="0" nextlayerid="3" nextobjectid="46">
 <tileset firstgid="1" name="egypt" tilewidth="16" tileheight="16" tilecount="220" columns="10">
  <image source="../../dev/gfx/maps/egypt/egypt-tiles.aseprite" width="160" height="352"/>
  <tile id="25" type="tile_SLOPE_135">
   <properties>
    <property name="property" type="int" propertytype="tileProperties" value="16"/>
   </properties>
  </tile>
  <tile id="30" type="tile_NO_SOLID">
   <properties>
    <property name="property" type="int" propertytype="tileProperties" value="1"/>
   </properties>
  </tile>
  <tile id="31" type="tile_NO_SOLID">
   <properties>
    <property name="property" type="int" propertytype="tileProperties" value="1"/>
   </properties>
  </tile>
  <tile id="32" type="tile_NO_SOLID">
   <properties>
    <property name="property" type="int" propertytype="tileProperties" value="1"/>
   </properties>
  </tile>
  <tile id="35" type="tile_NO_SOLID">
   <properties>
    <property name="property" type="int" propertytype="tileProperties" value="3"/>
   </properties>
  </tile>
  <tile id="36" type="tile_NO_SOLID">
   <properties>
    <property name="property" type="int" propertytype="tileProperties" value="3"/>
   </properties>
  </tile>
  <tile id="44" type="tile_FRONT">
   <properties>
    <property name="property" type="int" propertytype="tileProperties" value="3"/>
   </properties>
  </tile>
  <tile id="45" type="tile_FRONT">
   <properties>
    <property name="property" type="int" propertytype="tileProperties" value="2"/>
   </properties>
  </tile>
  <tile id="46" type="tile_FRONT">
   <properties>
    <property name="property" type="int" propertytype="tileProperties" value="3"/>
   </properties>
  </tile>
  <tile id="47" type="tile_FRONT">
   <properties>
    <property name="property" type="int" propertytype="tileProperties" value="3"/>
   </properties>
  </tile>
  <tile id="50" type="tile_FRONT">
   <properties>
    <property name="property" type="int" propertytype="tileProperties" value="2"/>
   </properties>
  </tile>
  <tile id="51" type="tile_FRONT">
   <properties>
    <property name="property" type="int" propertytype="tileProperties" value="2"/>
   </properties>
  </tile>
  <tile id="54" type="tile_FRONT">
   <properties>
    <property name="property" type="int" propertytype="tileProperties" value="2"/>
   </properties>
  </tile>
  <tile id="55" type="tile_FRONT">
   <properties>
    <property name="property" type="int" propertytype="tileProperties" value="3"/>
   </properties>
  </tile>
  <tile id="68" type="tile_NO_SOLID">
   <properties>
    <property name="property" type="int" propertytype="tileProperties" value="1"/>
   </properties>
  </tile>
  <tile id="69" type="tile_NO_SOLID">
   <properties>
    <property name="property" type="int" propertytype="tileProperties" value="1"/>
   </properties>
  </tile>
  <tile id="77" type="tile_TOP_STAIR">
   <properties>
    <property name="property" type="int" propertytype="tileProperties" value="128"/>
   </properties>
  </tile>
  <tile id="78" type="tile_NO_SOLID">
   <properties>
    <property name="property" type="int" propertytype="tileProperties" value="1"/>
   </properties>
  </tile>
  <tile id="79" type="tile_NO_SOLID">
   <properties>
    <property name="property" type="int" propertytype="tileProperties" value="1"/>
   </properties>
  </tile>
  <tile id="80" type="tile_NO_SOLID">
   <properties>
    <property name="property" type="int" propertytype="tileProperties" value="3"/>
   </properties>
  </tile>
  <tile id="81" type="tile_NO_SOLID">
   <properties>
    <property name="property" type="int" propertytype="tileProperties" value="3"/>
   </properties>
  </tile>
  <tile id="82" type="tile_NO_SOLID">
   <properties>
    <property name="property" type="int" propertytype="tileProperties" value="1"/>
   </properties>
  </tile>
  <tile id="83" type="tile_NO_SOLID">
   <properties>
    <property name="property" type="int" propertytype="tileProperties" value="3"/>
   </properties>
  </tile>
  <tile id="84" type="tile_NO_SOLID">
   <properties>
    <property name="property" type="int" propertytype="tileProperties" value="3"/>
   </properties>
  </tile>
  <tile id="85" type="tile_NO_SOLID">
   <properties>
    <property name="property" type="int" propertytype="tileProperties" value="1"/>
   </properties>
  </tile>
  <tile id="86" type="tile_TOP_STAIR">
   <properties>
    <property name="property" type="int" propertytype="tileProperties" value="128"/>
   </properties>
  </tile>
  <tile id="88" type="tile_NO_SOLID">
   <properties>
    <property name="property" type="int" propertytype="tileProperties" value="1"/>
   </properties>
  </tile>
  <tile id="89" type="tile_NO_SOLID">
   <properties>
    <property name="property" type="int" propertytype="tileProperties" value="1"/>
   </properties>
  </tile>
  <tile id="90" type="tile_NO_SOLID">
   <properties>
    <property name="property" type="int" propertytype="tileProperties" value="3"/>
   </properties>
  </tile>
  <tile id="91" type="tile_NO_SOLID">
   <properties>
    <property name="property" type="int" propertytype="tileProperties" value="3"/>
   </properties>
  </tile>
  <tile id="92" type="tile_NO_SOLID">
   <properties>
    <property name="property" type="int" propertytype="tileProperties" value="1"/>
   </properties>
  </tile>
  <tile id="93" type="tile_NO_SOLID">
   <properties>
    <property name="property" type="int" propertytype="tileProperties" value="3"/>
   </properties>
  </tile>
  <tile id="94" type="tile_NO_SOLID">
   <properties>
    <property name="property" type="int" propertytype="tileProperties" value="3"/>
   </properties>
  </tile>
  <tile id="95" type="tile_NO_SOLID">
   <properties>
    <property name="property" type="int" propertytype="tileProperties" value="1"/>
   </properties>
  </tile>
  <tile id="96" type="tile_STAIR">
   <properties>
    <property name="property" type="int" propertytype="tileProperties" value="256"/>
   </properties>
  </tile>
  <tile id="97" type="tile_STAIR">
   <properties>
    <property name="property" type="int" propertytype="tileProperties" value="256"/>
   </properties>
  </tile>
  <tile id="98" type="tile_NO_SOLID">
   <properties>
    <property name="property" type="int" propertytype="tileProperties" value="1"/>
   </properties>
  </tile>
  <tile id="99" type="tile_NO_SOLID">
   <properties>
    <property name="property" type="int" propertytype="tileProperties" value="1"/>
   </properties>
  </tile>
  <tile id="100" type="tile_NO_SOLID">
   <properties>
    <property name="property" type="int" propertytype="tileProperties" value="1"/>
   </properties>
  </tile>
  <tile id="101" type="tile_NO_SOLID">
   <properties>
    <property name="property" type="int" propertytype="tileProperties" value="1"/>
   </properties>
  </tile>
  <tile id="102" type="tile_NO_SOLID">
   <properties>
    <property name="property" type="int" propertytype="tileProperties" value="1"/>
   </properties>
  </tile>
  <tile id="103" type="tile_NO_SOLID">
   <properties>
    <property name="property" type="int" propertytype="tileProperties" value="3"/>
   </properties>
  </tile>
  <tile id="104" type="tile_NO_SOLID">
   <properties>
    <property name="property" type="int" propertytype="tileProperties" value="3"/>
   </properties>
  </tile>
  <tile id="105" type="tile_NO_SOLID">
   <properties>
    <property name="property" type="int" propertytype="tileProperties" value="1"/>
   </properties>
  </tile>
  <tile id="106" type="tile_STAIR">
   <properties>
    <property name="property" type="int" propertytype="tileProperties" value="256"/>
   </properties>
  </tile>
  <tile id="107" type="tile_STAIR">
   <properties>
    <property name="property" type="int" propertytype="tileProperties" value="256"/>
   </properties>
  </tile>
  <tile id="110" type="tile_NO_SOLID">
   <properties>
    <property name="property" type="int" propertytype="tileProperties" value="1"/>
   </properties>
  </tile>
  <tile id="111" type="tile_NO_SOLID">
   <properties>
    <property name="property" type="int" propertytype="tileProperties" value="1"/>
   </properties>
  </tile>
  <tile id="112" type="tile_NO_SOLID">
   <properties>
    <property name="property" type="int" propertytype="tileProperties" value="1"/>
   </properties>
  </tile>
  <tile id="113" type="tile_NO_SOLID">
   <properties>
    <property name="property" type="int" propertytype="tileProperties" value="3"/>
   </properties>
  </tile>
  <tile id="114" type="tile_NO_SOLID">
   <properties>
    <property name="property" type="int" propertytype="tileProperties" value="3"/>
   </properties>
  </tile>
  <tile id="115" type="tile_NO_SOLID">
   <properties>
    <property name="property" type="int" propertytype="tileProperties" value="5"/>
   </properties>
  </tile>
  <tile id="116" type="tile_NO_SOLID">
   <properties>
    <property name="property" type="int" propertytype="tileProperties" value="1"/>
   </properties>
  </tile>
  <tile id="117" type="tile_NO_SOLID">
   <properties>
    <property name="property" type="int" propertytype="tileProperties" value="1"/>
   </properties>
  </tile>
  <tile id="118" type="tile_NO_SOLID">
   <properties>
    <property name="property" type="int" propertytype="tileProperties" value="1"/>
   </properties>
  </tile>
  <tile id="119" type="tile_NO_SOLID">
   <properties>
    <property name="property" type="int" propertytype="tileProperties" value="1"/>
   </properties>
   <animation>
    <frame tileid="115" duration="200"/>
    <frame tileid="116" duration="200"/>
    <frame tileid="117" duration="200"/>
    <frame tileid="118" duration="200"/>
    <frame tileid="119" duration="200"/>
   </animation>
  </tile>
  <tile id="120" type="tile_NO_SOLID">
   <properties>
    <property name="property" type="int" propertytype="tileProperties" value="1"/>
   </properties>
  </tile>
  <tile id="121" type="tile_NO_SOLID">
   <properties>
    <property name="property" type="int" propertytype="tileProperties" value="1"/>
   </properties>
  </tile>
  <tile id="122" type="tile_NO_SOLID">
   <properties>
    <property name="property" type="int" propertytype="tileProperties" value="1"/>
   </properties>
  </tile>
  <tile id="123" type="tile_NO_SOLID">
   <properties>
    <property name="property" type="int" propertytype="tileProperties" value="1"/>
   </properties>
  </tile>
  <tile id="124" type="tile_NO_SOLID">
   <properties>
    <property name="property" type="int" propertytype="tileProperties" value="1"/>
   </properties>
  </tile>
  <tile id="125" type="tile_NO_SOLID">
   <properties>
    <property name="property" type="int" propertytype="tileProperties" value="1"/>
   </properties>
  </tile>
  <tile id="129" type="tile_NO_SOLID">
   <properties>
    <property name="property" type="int" propertytype="tileProperties" value="1"/>
   </properties>
  </tile>
  <tile id="130" type="tile_NO_SOLID">
   <properties>
    <property name="property" type="int" propertytype="tileProperties" value="1"/>
   </properties>
  </tile>
  <tile id="131" type="tile_NO_SOLID">
   <properties>
    <property name="property" type="int" propertytype="tileProperties" value="1"/>
   </properties>
  </tile>
  <tile id="132" type="tile_NO_SOLID">
   <properties>
    <property name="property" type="int" propertytype="tileProperties" value="1"/>
   </properties>
  </tile>
  <tile id="133" type="tile_NO_SOLID">
   <properties>
    <property name="property" type="int" propertytype="tileProperties" value="1"/>
   </properties>
  </tile>
  <tile id="134" type="tile_NO_SOLID">
   <properties>
    <property name="property" type="int" propertytype="tileProperties" value="1"/>
   </properties>
  </tile>
  <tile id="135" type="tile_NO_SOLID">
   <properties>
    <property name="property" type="int" propertytype="tileProperties" value="1"/>
   </properties>
  </tile>
  <tile id="140" type="tile_NO_SOLID">
   <properties>
    <property name="property" type="int" propertytype="tileProperties" value="1"/>
   </properties>
  </tile>
  <tile id="141" type="tile_NO_SOLID">
   <properties>
    <property name="property" type="int" propertytype="tileProperties" value="1"/>
   </properties>
  </tile>
  <tile id="144" type="tile_NO_SOLID">
   <properties>
    <property name="property" type="int" propertytype="tileProperties" value="1"/>
   </properties>
  </tile>
  <tile id="145" type="tile_NO_SOLID">
   <properties>
    <property name="property" type="int" propertytype="tileProperties" value="1"/>
   </properties>
  </tile>
  <tile id="156" type="tile_NO_SOLID">
   <properties>
    <property name="property" type="int" propertytype="tileProperties" value="1"/>
   </properties>
  </tile>
  <tile id="157" type="tile_NO_SOLID">
   <properties>
    <property name="property" type="int" propertytype="tileProperties" value="1"/>
   </properties>
  </tile>
  <tile id="158" type="tile_NO_SOLID">
   <properties>
    <property name="property" type="int" propertytype="tileProperties" value="1"/>
   </properties>
  </tile>
  <tile id="159" type="tile_NO_SOLID">
   <properties>
    <property name="property" type="int" propertytype="tileProperties" value="1"/>
   </properties>
  </tile>
  <tile id="160" type="tile_NO_SOLID">
   <properties>
    <property name="property" type="int" propertytype="tileProperties" value="1"/>
   </properties>
  </tile>
  <tile id="161" type="tile_NO_SOLID">
   <properties>
    <property name="property" type="int" propertytype="tileProperties" value="1"/>
   </properties>
  </tile>
  <tile id="162" type="tile_NO_SOLID">
   <properties>
    <property name="property" type="int" propertytype="tileProperties" value="1"/>
   </properties>
  </tile>
  <tile id="163" type="tile_NO_SOLID">
   <properties>
    <property name="property" type="int" propertytype="tileProperties" value="1"/>
   </properties>
  </tile>
  <tile id="166" type="tile_NO_SOLID">
   <properties>
    <property name="property" type="int" propertytype="tileProperties" value="1"/>
   </properties>
  </tile>
  <tile id="167" type="tile_NO_SOLID">
   <properties>
    <property name="property" type="int" propertytype="tileProperties" value="1"/>
   </properties>
  </tile>
  <tile id="168" type="tile_NO_SOLID">
   <properties>
    <property name="property" type="int" propertytype="tileProperties" value="1"/>
   </properties>
  </tile>
  <tile id="169" type="tile_NO_SOLID">
   <properties>
    <property name="property" type="int" propertytype="tileProperties" value="1"/>
   </properties>
  </tile>
  <tile id="183" type="tile_NO_SOLID">
   <properties>
    <property name="property" type="int" propertytype="tileProperties" value="1"/>
   </properties>
  </tile>
  <tile id="184" type="tile_NO_SOLID">
   <properties>
    <property name="property" type="int" propertytype="tileProperties" value="1"/>
   </properties>
  </tile>
  <tile id="185" type="tile_NO_SOLID">
   <properties>
    <property name="property" type="int" propertytype="tileProperties" value="1"/>
   </properties>
  </tile>
  <tile id="186" type="tile_NO_SOLID">
   <properties>
    <property name="property" type="int" propertytype="tileProperties" value="1"/>
   </properties>
  </tile>
  <tile id="187" type="tile_NO_SOLID">
   <properties>
    <property name="property" type="int" propertytype="tileProperties" value="1"/>
   </properties>
  </tile>
  <tile id="188" type="tile_NO_SOLID">
   <properties>
    <property name="property" type="int" propertytype="tileProperties" value="1"/>
   </properties>
  </tile>
  <tile id="193" type="tile_NO_SOLID">
   <properties>
    <property name="property" type="int" propertytype="tileProperties" value="1"/>
   </properties>
  </tile>
  <tile id="194" type="tile_NO_SOLID">
   <properties>
    <property name="property" type="int" propertytype="tileProperties" value="1"/>
   </properties>
  </tile>
  <tile id="195" type="tile_NO_SOLID">
   <properties>
    <property name="property" type="int" propertytype="tileProperties" value="1"/>
   </properties>
  </tile>
  <tile id="196" type="tile_NO_SOLID">
   <properties>
    <property name="property" type="int" propertytype="tileProperties" value="1"/>
   </properties>
  </tile>
  <tile id="197" type="tile_NO_SOLID">
   <properties>
    <property name="property" type="int" propertytype="tileProperties" value="1"/>
   </properties>
  </tile>
  <tile id="198" type="tile_NO_SOLID">
   <properties>
    <property name="property" type="int" propertytype="tileProperties" value="1"/>
   </properties>
  </tile>
  <tile id="199" type="tile_NO_SOLID">
   <properties>
    <property name="property" type="int" propertytype="tileProperties" value="3"/>
   </properties>
  </tile>
  <tile id="200" type="tile_NO_SOLID">
   <properties>
    <property name="property" type="int" propertytype="tileProperties" value="1"/>
   </properties>
  </tile>
  <tile id="201" type="tile_NO_SOLID">
   <properties>
    <property name="property" type="int" propertytype="tileProperties" value="1"/>
   </properties>
  </tile>
  <tile id="202" type="tile_NO_SOLID">
   <properties>
    <property name="property" type="int" propertytype="tileProperties" value="1"/>
   </properties>
  </tile>
  <tile id="203" type="tile_NO_SOLID">
   <properties>
    <property name="property" type="int" propertytype="tileProperties" value="1"/>
   </properties>
  </tile>
  <tile id="204" type="tile_NO_SOLID">
   <properties>
    <property name="property" type="int" propertytype="tileProperties" value="1"/>
   </properties>
  </tile>
  <tile id="205" type="tile_NO_SOLID">
   <properties>
    <property name="property" type="int" propertytype="tileProperties" value="1"/>
   </properties>
  </tile>
  <tile id="206" type="tile_NO_SOLID">
   <properties>
    <property name="property" type="int" propertytype="tileProperties" value="1"/>
   </properties>
  </tile>
  <tile id="207" type="tile_NO_SOLID">
   <properties>
    <property name="property" type="int" propertytype="tileProperties" value="1"/>
   </properties>
  </tile>
  <tile id="209" type="tile_NO_SOLID">
   <properties>
    <property name="property" type="int" propertytype="tileProperties" value="1"/>
   </properties>
  </tile>
  <tile id="210" type="tile_NO_SOLID">
   <properties>
    <property name="property" type="int" propertytype="tileProperties" value="1"/>
   </properties>
  </tile>
  <tile id="211" type="tile_NO_SOLID">
   <properties>
    <property name="property" type="int" propertytype="tileProperties" value="1"/>
   </properties>
  </tile>
  <tile id="212" type="tile_NO_SOLID">
   <properties>
    <property name="property" type="int" propertytype="tileProperties" value="1"/>
   </properties>
  </tile>
  <tile id="213" type="tile_NO_SOLID">
   <properties>
    <property name="property" type="int" propertytype="tileProperties" value="1"/>
   </properties>
  </tile>
  <tile id="214" type="tile_NO_SOLID">
   <properties>
    <property name="property" type="int" propertytype="tileProperties" value="1"/>
   </properties>
  </tile>
  <tile id="215" type="tile_NO_SOLID">
   <properties>
    <property name="property" type="int" propertytype="tileProperties" value="1"/>
   </properties>
  </tile>
  <tile id="216" type="tile_NO_SOLID">
   <properties>
    <property name="property" type="int" propertytype="tileProperties" value="1"/>
   </properties>
  </tile>
  <tile id="217" type="tile_NO_SOLID">
   <properties>
    <property name="property" type="int" propertytype="tileProperties" value="1"/>
   </properties>
  </tile>
 </tileset>
 <layer id="1" name="tiles" width="256" height="20">
  <properties>
   <property name="backColor" type="int" value="243"/>
  </properties>
  <data encoding="csv">
0,0,0,0,0,0,0,0,0,0,0,0,0,0,0,0,0,0,0,0,0,0,0,0,0,0,0,0,0,0,0,0,0,0,0,0,0,0,0,0,0,0,0,0,0,0,0,0,0,0,0,0,0,0,0,0,0,0,0,0,0,0,0,0,0,0,0,0,0,0,0,0,0,0,0,0,0,0,0,0,0,0,0,0,0,0,0,0,0,0,0,0,0,0,0,0,0,0,0,0,0,0,0,0,0,0,0,0,0,0,0,0,0,0,0,0,0,0,0,0,0,0,0,0,0,0,0,0,0,0,0,0,0,0,0,0,0,0,0,0,0,0,0,0,0,0,0,0,0,0,0,0,0,0,0,0,0,0,0,0,0,0,0,0,0,0,0,0,0,0,0,0,0,0,0,0,0,0,0,0,0,0,0,0,0,0,0,0,0,0,0,0,0,0,0,0,0,0,0,0,0,0,0,0,0,0,0,0,0,0,0,0,0,0,0,0,0,0,0,0,0,0,0,0,0,0,0,0,0,0,0,0,0,0,0,0,0,0,0,0,0,0,0,0,0,0,0,0,0,0,0,0,0,0,0,0,
0,0,0,0,0,0,0,0,0,0,0,0,0,0,0,0,0,0,0,0,0,0,0,0,0,0,0,0,0,0,0,0,0,0,0,0,0,0,0,0,0,0,0,0,0,0,0,0,0,0,0,0,0,0,0,0,0,0,0,0,0,0,0,0,0,0,0,0,0,0,0,0,0,0,0,0,0,0,0,0,0,0,0,0,0,0,0,0,0,0,0,0,0,0,0,0,0,0,0,0,0,0,0,0,0,0,0,0,0,0,0,0,0,0,0,0,0,0,0,0,0,0,0,0,0,0,0,0,0,0,0,0,0,0,0,0,0,0,0,0,0,0,0,0,0,0,0,0,0,0,0,0,0,0,0,0,0,0,0,0,0,0,0,0,0,0,0,0,0,0,0,0,0,0,0,0,0,0,0,0,0,0,0,0,0,0,0,0,0,0,0,0,0,0,0,0,0,0,0,0,0,0,0,0,0,0,0,0,0,0,0,0,0,0,0,0,0,0,0,0,0,0,0,0,0,0,0,0,0,0,0,0,0,0,0,0,0,0,0,0,0,0,0,0,0,0,0,0,0,0,0,0,0,0,0,0,
0,0,0,0,0,0,0,0,0,0,0,0,0,0,0,0,0,0,0,0,0,0,0,0,0,0,0,0,0,0,0,0,0,0,0,0,0,0,0,0,0,0,0,0,0,0,0,0,0,0,0,0,0,0,0,0,0,0,0,0,0,0,0,0,0,0,0,0,0,0,0,0,0,0,0,0,0,0,0,0,0,0,0,0,0,0,0,0,0,0,0,0,0,0,0,0,0,0,0,0,0,0,0,0,0,0,0,0,0,0,0,0,0,0,0,0,0,0,0,0,0,0,0,0,0,0,0,0,0,0,0,0,0,0,0,0,0,0,0,0,0,0,0,0,0,0,0,0,0,0,0,0,0,0,0,0,0,0,0,0,0,0,0,0,0,0,0,0,0,0,0,0,0,0,0,0,0,0,0,0,0,0,0,0,0,0,0,0,0,0,0,0,0,0,0,0,0,0,0,0,0,0,0,0,0,0,0,0,0,0,0,0,0,0,0,0,0,0,0,0,0,0,0,0,0,0,0,0,0,0,0,0,0,0,0,0,0,0,0,0,0,0,0,0,0,0,0,0,0,0,0,0,0,0,0,0,
0,0,0,0,0,0,0,0,0,0,0,0,0,0,0,0,0,0,0,0,0,0,0,0,0,0,0,0,0,0,0,0,0,0,0,0,0,0,0,0,0,0,0,0,0,0,0,0,0,0,0,0,0,0,0,0,0,0,0,0,0,0,0,0,0,0,0,0,0,0,0,0,0,0,0,0,0,0,0,0,0,0,0,0,0,0,0,0,0,0,0,0,0,0,0,0,0,0,0,0,0,0,0,0,0,0,0,0,0,0,0,0,0,0,0,0,0,0,0,0,0,0,0,0,0,0,0,0,0,0,0,0,0,0,0,0,0,0,0,0,0,0,0,0,0,0,0,0,0,0,0,0,0,0,0,0,0,0,0,0,0,0,0,0,0,0,0,0,0,0,0,0,0,0,0,0,0,0,0,0,0,0,0,0,0,0,0,0,0,0,0,0,0,0,0,0,0,0,0,0,0,0,0,0,0,0,0,0,0,0,0,0,0,0,0,0,0,0,0,0,0,0,0,0,0,0,0,0,0,0,0,0,0,0,0,0,0,0,0,0,0,0,0,0,0,0,0,0,0,0,0,0,0,0,0,0,
0,0,0,0,0,0,0,0,0,0,0,0,0,0,0,0,0,0,0,0,0,0,0,0,0,0,0,0,0,0,0,0,0,0,0,0,0,0,0,0,0,0,0,0,0,0,0,0,0,0,0,0,0,0,0,0,0,0,0,0,0,0,0,0,0,0,0,0,0,0,0,0,0,0,0,0,0,0,0,0,0,0,0,0,0,0,0,0,0,0,0,0,0,0,0,0,0,0,0,0,0,0,0,0,0,0,0,0,0,0,0,0,0,0,0,0,0,0,0,0,0,0,0,0,0,0,0,0,0,0,0,0,0,0,0,0,0,0,0,0,0,0,0,0,0,0,0,0,0,0,0,0,0,0,0,0,0,0,0,0,0,0,0,0,0,0,0,0,0,0,0,0,0,0,0,0,0,0,0,0,0,0,0,0,0,0,0,0,0,0,0,0,0,0,0,0,0,0,0,0,0,0,0,0,0,0,0,0,0,0,0,0,0,0,0,0,0,0,0,0,0,0,0,0,0,0,0,0,0,0,0,0,0,0,0,0,0,0,0,0,0,0,0,0,0,0,0,0,0,0,0,0,0,0,0,0,
0,0,0,0,0,0,0,0,0,0,0,0,0,0,0,0,0,0,0,0,0,0,0,0,0,0,0,0,0,0,0,0,0,0,0,0,0,0,0,0,0,0,0,0,0,0,0,0,0,0,0,0,0,0,0,0,0,0,0,0,0,0,0,0,0,0,0,0,0,0,0,0,0,0,0,0,0,0,0,0,0,0,0,0,0,0,0,0,0,0,0,0,0,0,0,0,0,0,0,0,0,0,0,0,0,0,0,0,0,0,0,0,0,0,0,0,0,0,0,0,0,0,0,0,0,0,0,0,0,0,0,0,0,0,0,0,0,0,0,0,0,0,0,0,0,0,0,0,0,0,0,0,0,0,0,0,0,0,0,0,0,0,0,0,0,0,0,0,0,0,0,0,0,0,0,0,0,0,0,0,0,0,0,0,0,0,0,0,0,0,0,0,0,0,0,0,0,0,0,0,0,0,0,0,0,0,0,0,0,0,0,0,0,0,0,0,0,0,0,0,0,0,0,0,0,0,0,0,0,0,0,0,0,0,0,0,0,0,0,0,0,0,0,0,0,0,0,0,0,0,0,0,0,0,0,0,
0,0,0,0,0,0,0,0,0,0,0,0,0,0,0,0,0,0,0,0,0,0,0,0,0,0,0,0,0,0,0,0,0,0,0,0,0,0,0,0,0,0,0,0,0,0,0,0,0,0,0,0,0,0,0,0,0,0,0,0,0,0,0,0,0,0,0,0,0,0,0,0,0,0,0,0,0,0,0,0,0,0,0,0,0,0,0,0,0,0,0,0,0,0,0,0,0,0,0,0,0,0,0,0,0,0,0,0,0,0,0,0,0,0,0,0,0,0,0,0,0,0,0,0,0,0,0,0,0,0,0,0,0,0,0,0,0,0,0,0,0,0,0,0,0,0,0,0,0,0,0,0,0,0,0,0,0,0,0,0,0,0,0,0,0,0,0,0,0,0,0,0,0,0,0,0,0,0,0,0,0,0,0,0,0,0,0,0,0,0,0,0,0,0,0,0,0,0,0,0,0,0,0,0,0,0,0,0,0,0,0,0,0,0,0,0,0,0,0,0,0,0,0,0,0,0,0,0,0,0,0,0,0,0,0,0,0,0,0,0,0,0,0,0,0,0,0,0,0,0,0,0,0,0,0,0,
0,0,0,0,0,0,0,0,0,0,0,0,0,0,0,0,0,0,0,0,0,0,0,0,0,0,0,0,0,0,0,0,0,0,0,0,0,0,0,0,0,0,0,0,0,0,0,0,0,0,0,0,0,0,0,0,0,0,0,0,0,0,0,0,0,0,0,0,0,0,0,0,0,0,0,0,0,0,0,0,0,0,0,0,0,0,0,0,0,0,0,0,0,0,0,0,0,0,0,0,0,0,0,0,0,0,0,0,0,0,0,0,0,0,0,0,0,0,0,0,0,0,0,0,0,0,0,0,0,0,0,0,0,0,0,0,0,0,0,0,0,0,0,0,0,0,0,0,0,0,0,0,0,0,0,0,0,0,0,0,0,0,0,0,0,0,0,0,0,0,0,0,0,0,0,0,0,0,0,0,0,0,0,0,0,0,0,0,0,0,0,0,0,0,0,0,0,0,0,0,0,0,0,0,0,0,0,0,0,0,0,0,0,0,0,0,0,0,0,0,0,0,0,0,0,0,0,0,0,0,0,0,0,0,0,0,0,0,0,0,0,0,0,0,0,0,0,0,0,0,0,0,0,0,0,0,
0,0,0,0,0,0,0,0,0,0,0,0,0,0,0,0,0,0,0,0,0,0,0,0,0,0,0,0,0,0,0,0,0,0,0,0,0,0,0,0,0,0,0,0,0,0,0,0,0,0,0,0,0,0,0,0,0,0,0,0,0,0,0,0,0,0,0,0,0,0,0,0,0,0,0,0,0,0,0,0,0,0,0,0,0,0,0,0,0,0,0,0,0,0,0,0,0,0,0,0,0,0,0,0,0,0,0,0,0,0,0,0,0,0,0,0,0,0,0,0,0,0,0,0,0,0,0,0,0,0,0,0,0,0,0,0,0,0,0,0,0,0,0,0,0,0,0,0,0,0,0,0,0,0,0,0,0,0,0,0,0,0,0,0,0,0,0,0,0,0,0,0,0,0,0,0,0,0,0,0,0,0,0,0,0,0,0,0,0,0,0,0,0,0,0,0,0,0,0,0,0,0,0,0,0,0,0,0,0,0,0,0,0,0,0,0,0,0,0,0,0,0,0,0,0,0,0,0,0,0,0,0,0,0,0,0,0,0,0,0,0,0,0,0,0,0,0,0,0,0,0,0,0,0,0,0,
0,0,0,0,0,0,0,0,0,0,0,0,0,0,0,0,0,0,0,0,0,0,0,0,0,0,0,0,0,0,0,0,0,0,0,0,0,0,0,0,0,0,0,0,0,0,0,0,0,0,0,0,0,0,0,0,0,0,0,0,0,0,0,0,0,0,0,0,0,0,0,0,0,0,0,0,0,0,0,0,0,0,0,0,0,0,0,0,0,0,0,0,0,0,0,0,0,0,0,0,0,0,0,0,0,0,0,0,0,0,0,0,0,0,0,0,0,0,0,0,0,0,0,0,0,0,0,0,0,0,0,0,0,0,0,0,0,0,0,0,0,0,0,0,0,0,0,0,0,0,0,0,0,0,0,0,0,0,0,0,0,0,0,0,0,0,0,0,0,0,0,0,0,0,0,0,0,0,0,0,0,0,0,0,0,0,0,0,0,0,0,0,0,0,0,0,0,0,0,0,0,0,0,0,0,0,0,0,0,0,0,0,0,0,0,0,0,0,0,0,0,0,0,0,0,0,0,0,0,0,0,0,0,0,0,0,0,0,0,0,0,0,0,0,0,0,0,0,0,0,0,0,0,0,0,0,
0,0,0,0,0,0,0,0,0,0,0,0,0,0,0,0,0,0,0,0,0,0,0,0,0,0,0,0,0,0,0,0,0,0,0,0,0,0,0,0,0,0,0,0,0,0,0,0,0,0,0,0,0,0,0,0,0,0,0,0,0,0,0,0,0,0,0,0,0,0,0,0,0,0,0,0,0,0,0,0,0,0,0,0,0,0,0,0,0,0,0,0,0,0,0,0,0,0,0,0,0,0,0,0,0,0,0,0,0,0,0,0,0,0,11,12,12,13,11,12,13,11,13,13,11,12,13,11,12,13,11,12,0,0,0,12,13,11,12,13,11,13,0,0,0,0,0,12,13,11,12,13,11,13,0,0,0,0,0,0,0,0,0,0,0,0,0,0,0,0,0,0,0,0,0,0,0,0,125,122,123,25,22,23,24,23,24,23,25,23,24,10,127,127,127,127,127,127,127,17,18,127,127,127,127,127,127,128,128,128,24,23,24,128,128,23,24,23,24,23,25,23,24,10,0,0,0,0,0,0,0,0,0,0,0,0,0,0,0,0,0,0,0,0,0,0,0,0,0,0,0,0,0,0,0,0,
0,0,0,0,0,0,0,0,0,0,0,0,0,0,0,0,0,0,0,0,0,0,0,0,0,0,0,0,0,0,0,0,0,0,0,0,0,0,0,0,0,0,0,0,0,0,0,0,0,0,0,0,0,0,0,0,0,0,0,0,0,0,0,0,0,0,0,0,0,0,0,0,0,0,0,0,0,0,0,0,0,0,0,0,0,0,0,0,0,0,0,0,0,0,0,0,0,0,0,0,0,0,0,0,0,0,0,0,0,0,0,0,0,0,0,128,128,128,128,128,128,128,128,128,128,128,128,128,128,128,128,0,0,0,0,0,128,128,128,128,0,0,0,0,0,0,0,0,128,128,128,128,128,0,0,0,0,0,0,0,0,0,0,0,0,0,0,0,0,0,0,0,0,0,0,0,0,0,135,132,133,141,141,141,141,142,141,141,141,142,142,141,141,141,141,142,141,141,141,141,141,142,141,141,141,142,142,142,142,142,142,142,142,142,142,142,142,142,142,142,142,142,142,142,0,0,0,0,0,0,0,0,0,0,0,0,0,0,0,0,0,0,0,0,0,0,0,0,0,0,0,0,0,0,0,0,
0,0,0,0,0,0,0,0,0,0,0,0,0,0,0,0,0,0,0,0,0,0,0,0,0,0,0,0,0,0,0,0,0,0,0,0,0,0,0,0,0,0,0,0,0,0,0,0,0,0,0,0,0,0,0,0,0,0,0,0,0,0,0,0,0,0,0,0,0,0,0,0,0,0,0,0,0,0,0,0,0,0,0,0,0,0,0,0,0,0,0,0,0,0,0,0,0,0,0,0,0,0,0,0,0,0,0,0,0,0,0,0,0,0,0,84,85,0,0,0,86,0,0,0,0,84,85,0,0,0,0,0,0,0,0,0,0,0,0,0,0,0,0,0,0,0,0,0,0,84,85,0,0,0,0,0,0,0,0,0,0,0,0,0,0,0,0,0,0,0,0,0,0,0,0,0,0,0,145,122,123,120,122,123,121,122,123,120,133,131,132,120,122,123,121,122,123,120,122,123,121,122,123,120,133,131,132,131,132,131,132,131,132,131,132,131,131,132,131,132,131,132,131,132,0,0,0,0,0,0,0,0,0,0,0,0,0,0,0,0,0,0,0,0,0,0,0,0,0,0,0,0,0,0,0,0,
0,0,0,0,0,0,0,0,0,0,0,0,0,0,0,0,0,0,0,0,0,0,0,0,0,0,0,0,0,0,0,0,0,0,0,0,0,0,0,0,0,0,0,0,0,0,0,0,0,0,0,0,0,0,0,0,0,0,0,0,0,0,0,0,0,0,0,0,0,0,0,0,0,0,0,0,0,0,0,0,0,0,0,0,0,0,0,0,0,0,0,0,0,0,0,0,0,0,0,0,0,0,0,0,0,0,0,0,0,0,0,0,0,0,0,94,95,0,0,0,96,0,0,0,0,94,95,0,0,0,0,0,0,0,0,0,0,0,0,0,0,0,0,0,0,0,0,0,0,94,95,0,0,0,0,0,0,0,0,0,0,0,0,0,0,0,43,41,41,41,44,0,0,0,0,0,0,0,125,132,133,130,123,123,131,132,133,130,121,121,122,130,123,123,131,132,133,130,123,123,131,132,133,130,121,121,122,121,122,121,122,121,122,121,122,121,122,122,201,202,121,122,203,204,0,0,0,0,0,0,0,0,0,0,0,0,0,0,0,0,0,0,0,0,0,0,0,0,0,0,0,0,0,0,0,0,
0,0,0,0,0,0,0,0,0,0,0,0,0,0,0,0,0,0,0,0,0,0,0,0,0,0,69,70,0,0,0,0,0,0,0,0,0,0,0,0,0,0,0,0,69,70,0,0,0,0,0,0,0,0,0,0,0,0,0,0,0,0,0,0,0,0,0,0,0,0,0,0,0,0,81,82,0,0,0,69,70,0,0,0,0,0,0,0,0,0,0,0,0,0,0,0,0,0,0,0,0,69,70,0,0,0,0,0,0,0,0,0,0,0,0,104,105,0,0,0,96,0,0,0,0,104,105,0,0,0,0,0,0,0,0,0,0,0,69,70,0,0,0,0,0,0,0,0,0,104,105,0,0,0,0,0,0,0,0,0,0,0,0,0,0,0,0,0,0,0,0,0,0,0,0,0,0,0,135,131,132,133,133,133,121,131,132,133,131,121,122,133,133,133,121,131,132,133,133,133,121,131,132,133,131,121,122,121,122,121,122,121,122,121,122,121,122,122,211,212,121,122,213,214,0,0,0,0,0,0,0,0,0,0,0,0,0,0,0,0,0,0,0,0,0,0,0,0,0,0,0,0,0,0,0,0,
0,0,0,0,0,0,0,0,0,0,0,0,0,0,0,0,0,0,0,0,0,0,0,0,0,0,79,80,0,0,0,0,0,0,0,0,0,0,0,0,0,0,0,0,79,80,69,70,0,0,0,0,0,0,0,0,0,0,0,0,0,0,0,0,0,0,0,0,0,0,0,0,0,0,91,92,0,0,0,79,80,0,0,0,0,0,0,0,0,0,0,0,0,0,0,0,0,0,0,0,0,79,80,69,70,0,0,0,0,0,0,0,0,0,0,91,92,0,0,0,106,0,0,0,0,91,92,0,0,0,0,0,0,0,0,0,0,0,79,80,0,0,0,0,0,0,0,0,0,114,115,0,0,0,0,0,0,0,43,41,41,41,44,0,0,0,0,0,0,0,0,0,0,0,0,0,0,86,145,132,133,11,12,13,12,12,11,12,13,11,12,13,11,12,13,12,12,123,121,11,12,121,123,11,12,121,122,121,122,121,122,121,122,121,132,131,132,122,121,122,121,122,121,122,0,0,0,0,0,0,0,0,0,0,0,0,0,0,0,0,0,0,0,0,0,0,0,0,0,0,0,0,0,0,0,0,
0,0,0,0,0,0,0,0,0,0,0,207,208,157,158,159,160,0,0,0,0,0,0,0,0,0,89,90,0,0,0,0,0,0,0,184,185,186,187,188,189,0,0,0,89,90,79,80,0,0,0,0,0,0,0,0,0,0,0,0,0,157,158,159,160,0,0,0,0,0,0,0,15,16,14,15,16,0,0,89,90,0,184,185,186,187,188,189,0,0,0,0,0,0,0,0,0,0,0,0,0,89,90,79,80,0,157,158,159,160,0,14,10,15,16,14,15,16,6,15,16,15,16,14,15,16,6,0,0,0,0,0,0,0,0,0,0,0,89,90,0,0,0,0,0,0,0,14,10,10,14,15,16,0,207,208,0,0,0,0,0,0,0,0,0,0,0,0,0,0,0,0,0,0,0,0,0,96,135,121,122,14,15,16,57,58,14,15,16,14,15,16,14,15,16,57,58,123,131,132,123,131,123,23,24,131,132,131,132,131,132,131,132,131,132,131,131,132,131,132,131,132,131,132,0,0,0,0,0,0,0,0,0,0,0,0,0,0,0,0,0,0,0,0,0,0,0,0,0,0,0,0,0,0,0,0,
0,0,0,0,161,162,163,164,210,0,0,217,218,167,168,169,170,0,161,162,163,164,0,200,210,0,0,100,0,0,43,42,42,0,0,194,195,196,197,198,199,0,0,0,0,100,89,90,0,0,0,0,0,0,0,200,210,0,0,0,0,167,168,169,170,0,161,162,163,164,0,20,14,15,16,14,15,16,0,0,100,0,194,195,196,197,198,199,210,200,0,0,0,0,210,0,161,162,163,164,0,0,100,89,90,0,167,168,169,170,15,16,20,14,15,16,14,15,16,14,15,14,15,16,14,15,16,0,0,0,0,0,0,0,0,0,0,0,0,100,0,161,162,163,164,0,15,16,20,20,20,20,14,0,217,218,0,0,0,0,0,0,0,0,0,0,0,0,0,0,0,0,0,0,0,0,0,106,145,131,132,14,15,16,67,68,14,15,16,14,15,16,14,15,16,67,68,133,121,131,133,121,133,14,121,121,131,121,131,121,131,121,131,121,131,121,121,131,121,131,121,131,121,131,0,0,0,0,0,0,0,0,0,0,0,0,0,0,0,0,0,0,0,0,0,0,0,0,0,0,0,0,0,0,0,0,
41,41,41,41,41,41,41,41,41,41,41,41,41,41,41,41,41,41,41,41,41,41,41,41,41,41,41,41,41,41,53,53,54,41,41,41,41,41,41,41,41,41,41,55,56,37,36,37,37,36,37,45,46,43,41,41,41,41,41,41,41,41,41,41,41,41,41,41,41,41,41,61,61,62,63,64,63,41,41,41,41,41,41,41,41,41,41,41,41,41,41,55,56,37,37,37,37,36,37,37,36,37,37,36,37,36,37,45,46,43,41,42,43,43,72,73,74,75,71,72,73,74,75,71,72,73,74,75,15,16,0,0,0,0,75,71,72,73,74,75,74,75,71,72,73,74,75,71,72,73,74,75,75,71,72,73,74,75,74,0,0,0,0,0,0,0,0,0,71,72,73,74,75,71,72,73,75,1,1,1,1,2,3,4,1,1,2,3,4,2,3,4,2,3,4,1,1,2,3,4,2,2,3,4,2,3,4,1,1,1,1,1,1,2,3,2,3,1,31,3,2,3,32,4,0,0,0,0,0,0,0,0,0,0,0,0,0,0,0,0,0,0,0,0,0,0,0,0,0,0,0,0,0,0,0,0,
63,64,64,61,62,63,64,61,62,63,61,62,63,61,62,61,62,63,64,61,62,61,62,61,62,63,61,62,61,62,63,63,64,62,61,62,61,62,63,62,63,64,64,51,48,47,47,48,47,47,48,47,52,53,62,61,62,63,64,61,62,61,62,61,62,63,63,64,64,61,62,63,61,62,62,63,61,62,63,61,62,61,62,63,64,61,62,61,62,61,62,51,48,47,47,47,47,47,48,47,47,48,47,47,48,47,48,47,52,53,62,52,54,54,64,51,30,27,28,29,27,28,29,27,27,28,29,30,27,28,29,0,0,0,0,28,29,27,28,29,30,27,28,15,16,28,29,28,15,16,28,29,29,28,15,16,28,29,0,0,0,0,0,0,0,0,0,0,0,0,27,28,29,27,27,28,30,7,8,9,29,30,27,29,27,29,7,8,9,27,29,30,30,27,29,27,29,7,8,9,27,7,8,9,27,29,30,8,9,29,8,9,29,30,29,30,27,29,29,30,29,30,8,9,0,0,0,0,0,0,0,0,0,0,0,0,0,0,0,0,0,0,0,0,0,0,0,0,0,0,0,0,0,0,0,0
</data>
 </layer>
 <objectgroup id="2" name="entities">
  <object id="1" name="player1" type="player" x="160" y="256" width="16" height="32">
   <properties>
    <property name="dir" type="int" propertytype="dir" value="1"/>
   </properties>
  </object>
  <object id="4" name="quick-sand" type="platform" x="1456" y="288" width="288" height="32">
   <properties>
    <property name="spare" type="int" value="288"/>
   </properties>
  </object>
  <object id="32" name="quick-sand" type="platform" x="688" y="288" width="160" height="32">
   <properties>
    <property name="spare" type="int" value="160"/>
   </properties>
  </object>
  <object id="6" name="trap-arrow" type="object" x="3264" y="272" width="16" height="16">
   <properties>
    <property name="dir" type="int" propertytype="dir" value="1"/>
   </properties>
  </object>
  <object id="7" name="egypt-symbol" type="object" x="3520" y="272" width="16" height="16">
   <properties>
    <property name="spare" type="int" propertytype="egypt_symbol" value="0"/>
   </properties>
  </object>
  <object id="9" name="egypt-symbol" type="object" x="3584" y="272" width="16" height="16">
   <properties>
    <property name="spare" type="int" propertytype="egypt_symbol" value="1"/>
   </properties>
  </object>
  <object id="10" name="egypt-symbol" type="object" x="3648" y="272" width="16" height="16">
   <properties>
    <property name="spare" type="int" propertytype="egypt_symbol" value="2"/>
   </properties>
  </object>
  <object id="11" name="symbol-hole" type="trigger" x="3488" y="288" width="16" height="16">
   <properties>
    <property name="spare" type="int" propertytype="egypt_symbol" value="0"/>
   </properties>
  </object>
  <object id="12" name="symbol-hole" type="trigger" x="3552" y="288" width="16" height="16">
   <properties>
    <property name="spare" type="int" propertytype="egypt_symbol" value="1"/>
   </properties>
  </object>
  <object id="13" name="symbol-hole" type="trigger" x="3616" y="288" width="16" height="16">
   <properties>
    <property name="spare" type="int" propertytype="egypt_symbol" value="2"/>
   </properties>
  </object>
  <object id="14" name="endLevel" type="object" x="3712" y="208" width="16" height="16"/>
  <object id="17" name="trap-arrow" type="object" x="3840" y="272" width="16" height="16">
   <properties>
    <property name="dir" type="int" propertytype="dir" value="1"/>
   </properties>
  </object>
  <object id="18" name="trap-arrow" type="object" x="4064" y="224" width="16" height="16">
   <properties>
    <property name="dir" type="int" propertytype="dir" value="0"/>
   </properties>
  </object>
  <object id="19" name="trap-arrow" type="object" x="3840" y="160" width="16" height="16">
   <properties>
    <property name="dir" type="int" propertytype="dir" value="1"/>
   </properties>
  </object>
  <object id="20" name="stopScroll" type="trigger" x="3840" y="224" width="16" height="16">
   <properties>
    <property name="spare" type="int" propertytype="stopScroll" value="1"/>
   </properties>
  </object>
  <object id="26" name="stopScroll" type="trigger" x="3840" y="80" width="16" height="16">
   <properties>
    <property name="spare" type="int" propertytype="stopScroll" value="1"/>
   </properties>
  </object>
  <object id="22" name="scorpion" type="enemy" x="1952" y="240" width="24" height="16">
   <properties>
    <property name="dir" type="int" propertytype="dir" value="1"/>
    <property name="spare" type="int" propertytype="scorpion" value="1"/>
   </properties>
  </object>
  <object id="41" name="scorpion" type="enemy" x="2208" y="272" width="24" height="16">
   <properties>
    <property name="dir" type="int" propertytype="dir" value="1"/>
    <property name="spare" type="int" propertytype="scorpion" value="1"/>
   </properties>
  </object>
  <object id="23" name="mummy" type="enemy" x="3024" y="208" width="48" height="32">
   <properties>
    <property name="dir" type="int" propertytype="dir" value="1"/>
   </properties>
  </object>
  <object id="27" name="vulture" type="enemy" x="368" y="256" width="16" height="16">
   <properties>
    <property name="dir" type="int" propertytype="dir" value="0"/>
   </properties>
  </object>
  <object id="31" name="vulture" type="enemy" x="496" y="240" width="16" height="16">
   <properties>
    <property name="dir" type="int" propertytype="dir" value="0"/>
   </properties>
  </object>
  <object id="28" name="vulture" type="enemy" x="1696" y="256" width="16" height="16">
   <properties>
    <property name="dir" type="int" propertytype="dir" value="0"/>
   </properties>
  </object>
  <object id="29" name="vulture" type="enemy" x="1632" y="240" width="16" height="16">
   <properties>
    <property name="dir" type="int" propertytype="dir" value="1"/>
   </properties>
  </object>
  <object id="35" name="vulture" type="enemy" x="1536" y="256" width="16" height="16">
   <properties>
    <property name="dir" type="int" propertytype="dir" value="0"/>
   </properties>
  </object>
  <object id="30" name="item" type="object" x="16" y="272" width="16" height="16">
   <properties>
    <property name="spare" type="int" propertytype="items" value="0"/>
   </properties>
  </object>
  <object id="36" name="beetle" type="enemy" x="992" y="272" width="16" height="16">
   <properties>
    <property name="dir" type="int" propertytype="dir" value="0"/>
   </properties>
  </object>
  <object id="37" name="beetle" type="enemy" x="1376" y="272" width="16" height="16">
   <properties>
    <property name="dir" type="int" propertytype="dir" value="0"/>
   </properties>
  </object>
  <object id="38" name="stopScroll" type="trigger" x="1920" y="160" width="16" height="16">
   <properties>
    <property name="spare" type="int" propertytype="stopScroll" value="8"/>
   </properties>
  </object>
  <object id="39" name="stopScroll" type="trigger" x="2176" y="160" width="16" height="16">
   <properties>
    <property name="spare" type="int" propertytype="stopScroll" value="8"/>
   </properties>
  </object>
  <object id="44" name="stopScroll" type="trigger" x="2496" y="160" width="16" height="16">
   <properties>
    <property name="spare" type="int" propertytype="stopScroll" value="8"/>
   </properties>
  </object>
  <object id="45" name="stopScroll" type="trigger" x="2688" y="160" width="16" height="16">
   <properties>
    <property name="spare" type="int" propertytype="stopScroll" value="8"/>
   </properties>
  </object>
  <object id="40" name="vulture" type="enemy" x="2112" y="240" width="16" height="16">
   <properties>
    <property name="dir" type="int" propertytype="dir" value="0"/>
   </properties>
  </object>
  <object id="42" name="rock4" type="object" x="1792" y="240" width="16" height="16"/>
  <object id="43" name="vulture" type="enemy" x="2608" y="192" width="16" height="16">
   <properties>
    <property name="dir" type="int" propertytype="dir" value="0"/>
   </properties>
  </object>
 </objectgroup>
</map>
