<?xml version="1.0" encoding="UTF-8"?>
<map version="1.10" tiledversion="1.12.1" orientation="orthogonal" renderorder="right-down" width="240" height="30" tilewidth="16" tileheight="16" infinite="0" backgroundcolor="#8386e7" nextlayerid="4" nextobjectid="92">
 <properties>
  <property name="time" type="int" value="200"/>
 </properties>
 <tileset firstgid="1" name="jurassic" tilewidth="16" tileheight="16" tilecount="110" columns="10">
  <image source="../../dev/gfx/maps/jurassic/jurassic_tileset.aseprite" width="160" height="176"/>
  <tile id="1">
   <properties>
    <property name="property" type="int" propertytype="tileProperties" value="2"/>
   </properties>
  </tile>
  <tile id="3">
   <properties>
    <property name="property" type="int" propertytype="tileProperties" value="2"/>
   </properties>
  </tile>
  <tile id="4">
   <properties>
    <property name="property" type="int" propertytype="tileProperties" value="0"/>
   </properties>
  </tile>
  <tile id="16">
   <properties>
    <property name="property" type="int" propertytype="tileProperties" value="0"/>
   </properties>
  </tile>
  <tile id="17">
   <properties>
    <property name="property" type="int" propertytype="tileProperties" value="8"/>
   </properties>
  </tile>
  <tile id="18">
   <properties>
    <property name="property" type="int" propertytype="tileProperties" value="16"/>
   </properties>
  </tile>
  <tile id="19">
   <properties>
    <property name="property" type="int" propertytype="tileProperties" value="0"/>
   </properties>
  </tile>
  <tile id="22">
   <properties>
    <property name="property" type="int" propertytype="tileProperties" value="1"/>
   </properties>
  </tile>
  <tile id="23">
   <properties>
    <property name="property" type="int" propertytype="tileProperties" value="1"/>
   </properties>
  </tile>
  <tile id="24">
   <properties>
    <property name="property" type="int" propertytype="tileProperties" value="1"/>
   </properties>
  </tile>
  <tile id="25">
   <properties>
    <property name="property" type="int" propertytype="tileProperties" value="3"/>
   </properties>
   <animation>
    <frame tileid="25" duration="300"/>
    <frame tileid="26" duration="300"/>
    <frame tileid="27" duration="300"/>
    <frame tileid="28" duration="300"/>
   </animation>
  </tile>
  <tile id="26">
   <properties>
    <property name="property" type="int" propertytype="tileProperties" value="3"/>
   </properties>
   <animation>
    <frame tileid="27" duration="300"/>
    <frame tileid="28" duration="300"/>
    <frame tileid="25" duration="300"/>
    <frame tileid="26" duration="300"/>
   </animation>
  </tile>
  <tile id="27">
   <properties>
    <property name="property" type="int" propertytype="tileProperties" value="3"/>
   </properties>
  </tile>
  <tile id="28">
   <properties>
    <property name="property" type="int" propertytype="tileProperties" value="3"/>
   </properties>
  </tile>
  <tile id="29">
   <properties>
    <property name="property" type="int" propertytype="tileProperties" value="3"/>
   </properties>
  </tile>
  <tile id="30">
   <properties>
    <property name="property" type="int" propertytype="tileProperties" value="256"/>
   </properties>
  </tile>
  <tile id="33">
   <properties>
    <property name="property" type="int" propertytype="tileProperties" value="1"/>
   </properties>
  </tile>
  <tile id="34">
   <properties>
    <property name="property" type="int" propertytype="tileProperties" value="1"/>
   </properties>
  </tile>
  <tile id="35">
   <properties>
    <property name="property" type="int" propertytype="tileProperties" value="3"/>
   </properties>
  </tile>
  <tile id="36">
   <properties>
    <property name="property" type="int" propertytype="tileProperties" value="3"/>
   </properties>
  </tile>
  <tile id="37">
   <properties>
    <property name="property" type="int" propertytype="tileProperties" value="3"/>
   </properties>
  </tile>
  <tile id="38">
   <properties>
    <property name="property" type="int" propertytype="tileProperties" value="3"/>
   </properties>
  </tile>
  <tile id="39">
   <properties>
    <property name="property" type="int" propertytype="tileProperties" value="3"/>
   </properties>
  </tile>
  <tile id="40">
   <properties>
    <property name="property" type="int" propertytype="tileProperties" value="3"/>
   </properties>
  </tile>
  <tile id="41">
   <properties>
    <property name="property" type="int" propertytype="tileProperties" value="3"/>
   </properties>
  </tile>
  <tile id="42">
   <properties>
    <property name="property" type="int" propertytype="tileProperties" value="3"/>
   </properties>
  </tile>
  <tile id="43">
   <properties>
    <property name="property" type="int" propertytype="tileProperties" value="1"/>
   </properties>
  </tile>
  <tile id="44">
   <properties>
    <property name="property" type="int" propertytype="tileProperties" value="1"/>
   </properties>
  </tile>
  <tile id="45">
   <properties>
    <property name="property" type="int" propertytype="tileProperties" value="1"/>
   </properties>
  </tile>
  <tile id="46">
   <properties>
    <property name="property" type="int" propertytype="tileProperties" value="1"/>
   </properties>
  </tile>
  <tile id="47">
   <properties>
    <property name="property" type="int" propertytype="tileProperties" value="1"/>
   </properties>
  </tile>
  <tile id="48">
   <properties>
    <property name="property" type="int" propertytype="tileProperties" value="1"/>
   </properties>
  </tile>
  <tile id="49">
   <properties>
    <property name="property" type="int" propertytype="tileProperties" value="128"/>
   </properties>
  </tile>
  <tile id="50">
   <properties>
    <property name="property" type="int" propertytype="tileProperties" value="1"/>
   </properties>
  </tile>
  <tile id="51">
   <properties>
    <property name="property" type="int" propertytype="tileProperties" value="1"/>
   </properties>
  </tile>
  <tile id="52">
   <properties>
    <property name="property" type="int" propertytype="tileProperties" value="1"/>
   </properties>
  </tile>
  <tile id="53">
   <properties>
    <property name="property" type="int" propertytype="tileProperties" value="1"/>
   </properties>
  </tile>
  <tile id="57">
   <properties>
    <property name="property" type="int" propertytype="tileProperties" value="1024"/>
   </properties>
  </tile>
  <tile id="58">
   <properties>
    <property name="property" type="int" propertytype="tileProperties" value="0"/>
   </properties>
  </tile>
  <tile id="59">
   <properties>
    <property name="property" type="int" propertytype="tileProperties" value="0"/>
   </properties>
  </tile>
  <tile id="60">
   <properties>
    <property name="property" type="int" propertytype="tileProperties" value="9216"/>
   </properties>
  </tile>
  <tile id="61">
   <properties>
    <property name="property" type="int" propertytype="tileProperties" value="9216"/>
   </properties>
  </tile>
  <tile id="62">
   <properties>
    <property name="property" type="int" propertytype="tileProperties" value="9216"/>
   </properties>
  </tile>
  <tile id="65">
   <properties>
    <property name="property" type="int" propertytype="tileProperties" value="1024"/>
   </properties>
  </tile>
  <tile id="66">
   <properties>
    <property name="property" type="int" propertytype="tileProperties" value="1024"/>
   </properties>
  </tile>
  <tile id="67">
   <properties>
    <property name="property" type="int" propertytype="tileProperties" value="1024"/>
   </properties>
  </tile>
  <tile id="68">
   <properties>
    <property name="property" type="int" propertytype="tileProperties" value="1024"/>
   </properties>
  </tile>
  <tile id="69">
   <properties>
    <property name="property" type="int" propertytype="tileProperties" value="1024"/>
   </properties>
  </tile>
  <tile id="70">
   <properties>
    <property name="property" type="int" propertytype="tileProperties" value="1024"/>
   </properties>
  </tile>
  <tile id="71">
   <properties>
    <property name="property" type="int" propertytype="tileProperties" value="1024"/>
   </properties>
  </tile>
  <tile id="72">
   <properties>
    <property name="property" type="int" propertytype="tileProperties" value="1024"/>
   </properties>
  </tile>
  <tile id="73">
   <properties>
    <property name="property" type="int" propertytype="tileProperties" value="1"/>
   </properties>
  </tile>
  <tile id="74">
   <properties>
    <property name="property" type="int" propertytype="tileProperties" value="1"/>
   </properties>
  </tile>
  <tile id="75">
   <properties>
    <property name="property" type="int" propertytype="tileProperties" value="1"/>
   </properties>
  </tile>
  <tile id="76">
   <properties>
    <property name="property" type="int" propertytype="tileProperties" value="1"/>
   </properties>
  </tile>
  <tile id="77">
   <properties>
    <property name="property" type="int" propertytype="tileProperties" value="1"/>
   </properties>
  </tile>
  <tile id="78">
   <properties>
    <property name="property" type="int" propertytype="tileProperties" value="1"/>
   </properties>
  </tile>
  <tile id="79">
   <properties>
    <property name="property" type="int" propertytype="tileProperties" value="1"/>
   </properties>
  </tile>
  <tile id="80">
   <properties>
    <property name="property" type="int" propertytype="tileProperties" value="1"/>
   </properties>
  </tile>
  <tile id="81">
   <properties>
    <property name="property" type="int" propertytype="tileProperties" value="1"/>
   </properties>
  </tile>
  <tile id="82">
   <properties>
    <property name="property" type="int" propertytype="tileProperties" value="1"/>
   </properties>
  </tile>
  <tile id="83">
   <properties>
    <property name="property" type="int" propertytype="tileProperties" value="1"/>
   </properties>
  </tile>
  <tile id="84">
   <properties>
    <property name="property" type="int" propertytype="tileProperties" value="1"/>
   </properties>
  </tile>
  <tile id="85">
   <properties>
    <property name="property" type="int" propertytype="tileProperties" value="1"/>
   </properties>
  </tile>
  <tile id="86">
   <properties>
    <property name="property" type="int" propertytype="tileProperties" value="1"/>
   </properties>
  </tile>
  <tile id="87">
   <properties>
    <property name="property" type="int" propertytype="tileProperties" value="1"/>
   </properties>
  </tile>
  <tile id="93">
   <properties>
    <property name="property" type="int" propertytype="tileProperties" value="1"/>
   </properties>
  </tile>
  <tile id="94">
   <properties>
    <property name="property" type="int" propertytype="tileProperties" value="1"/>
   </properties>
  </tile>
  <tile id="95">
   <properties>
    <property name="property" type="int" propertytype="tileProperties" value="1"/>
   </properties>
  </tile>
  <tile id="96">
   <properties>
    <property name="property" type="int" propertytype="tileProperties" value="1"/>
   </properties>
  </tile>
  <tile id="97">
   <properties>
    <property name="property" type="int" propertytype="tileProperties" value="1"/>
   </properties>
  </tile>
  <tile id="98">
   <properties>
    <property name="property" type="int" propertytype="tileProperties" value="1"/>
   </properties>
  </tile>
  <tile id="99">
   <properties>
    <property name="property" type="int" propertytype="tileProperties" value="1"/>
   </properties>
  </tile>
  <tile id="102">
   <properties>
    <property name="property" type="int" propertytype="tileProperties" value="0"/>
   </properties>
  </tile>
 </tileset>
 <layer id="1" name="tiles" width="240" height="30">
  <properties>
   <property name="backColor" type="int" value="255"/>
  </properties>
  <data encoding="csv">
75,77,78,0,0,0,0,0,0,0,0,0,0,0,0,0,0,0,0,74,75,76,77,78,0,79,80,81,82,83,0,0,0,0,0,0,0,0,0,0,0,0,0,79,80,82,83,0,0,0,0,0,0,0,0,14,5,4,4,12,0,0,0,0,75,77,78,0,0,0,0,0,0,0,0,0,6,5,4,4,4,4,4,5,5,5,8,0,0,0,0,0,0,0,74,75,77,78,0,0,0,0,0,0,0,0,0,0,0,0,0,0,0,0,0,0,0,0,0,0,0,0,0,0,0,0,74,75,76,77,78,0,0,0,0,0,84,87,85,86,87,88,0,0,0,0,0,0,0,0,0,79,80,82,83,0,0,0,0,0,0,85,86,87,85,86,87,88,0,0,0,0,0,0,0,84,85,86,87,94,95,94,49,47,47,23,49,47,5,5,5,5,5,5,5,100,95,0,0,0,0,0,0,0,0,0,0,0,0,0,0,0,0,0,0,0,0,0,0,0,0,0,0,0,0,0,0,0,0,0,0,0,0,0,0,0,0,0,0,0,
80,82,83,0,0,0,0,0,74,75,76,77,78,0,0,0,0,0,0,79,80,81,82,83,0,0,0,0,0,0,0,0,0,0,0,85,86,87,88,0,0,0,0,0,0,0,0,0,0,0,0,84,85,86,87,11,4,4,4,13,0,0,0,79,80,82,83,0,0,0,0,0,74,75,76,77,78,6,5,5,5,5,4,5,5,8,0,0,0,0,0,0,0,0,79,80,82,83,0,0,0,74,75,76,77,78,0,0,0,0,0,0,0,0,0,0,0,0,84,85,86,87,88,0,0,0,79,80,81,82,83,0,0,0,0,0,0,0,0,0,0,0,0,0,0,0,0,0,0,0,0,0,0,0,0,0,0,0,0,0,0,0,0,0,0,0,0,0,0,0,0,0,0,0,0,0,0,0,0,47,47,47,49,48,48,23,49,47,100,100,5,5,5,5,100,100,100,94,95,0,0,0,0,0,0,0,0,74,75,76,77,78,0,0,0,0,0,0,85,86,87,85,86,87,88,0,0,0,0,0,0,0,0,0,0,0,0,74,75,76,
0,0,0,0,74,75,77,78,79,80,81,82,83,0,0,0,0,0,0,0,0,0,0,0,0,0,74,75,77,78,0,0,0,0,0,0,0,0,0,0,0,0,0,0,0,0,0,0,84,85,86,87,88,0,0,6,7,7,7,8,0,0,0,0,0,0,0,0,74,75,77,78,79,80,81,82,83,0,6,5,5,4,4,5,8,0,0,0,0,0,74,75,77,78,0,0,0,0,0,0,0,79,80,81,82,83,0,0,0,0,0,0,0,0,0,0,0,0,0,0,84,85,86,87,88,0,0,0,0,0,0,0,0,0,0,0,0,0,0,0,0,0,0,0,0,0,0,0,0,0,0,0,0,0,0,0,74,75,77,78,0,0,0,0,0,85,86,87,85,86,87,88,0,0,0,0,0,0,94,47,47,47,49,47,48,48,49,47,23,48,100,5,5,5,100,100,100,100,100,84,85,86,87,88,0,0,0,79,80,81,82,83,0,0,0,0,0,0,0,0,0,0,0,0,0,0,0,0,0,0,0,0,0,74,75,77,78,79,80,81,
87,88,0,0,79,81,82,83,0,0,0,0,0,0,84,85,86,87,88,0,0,0,0,0,0,0,79,81,82,83,0,0,0,0,0,0,0,0,0,0,1,2,3,0,0,0,0,0,0,0,0,0,0,0,0,0,0,0,0,0,0,0,0,0,0,0,0,0,79,80,82,83,0,0,0,0,0,0,0,6,7,7,7,8,0,0,0,0,0,0,79,80,82,83,0,0,0,0,0,0,0,0,0,0,0,0,0,74,75,76,77,78,0,0,0,0,0,0,0,0,0,0,0,0,0,0,0,0,0,0,74,75,76,77,78,0,0,0,0,0,0,84,87,85,86,87,88,0,0,0,0,0,0,0,0,0,79,80,82,83,0,0,0,0,0,0,0,0,0,0,0,0,0,0,0,0,0,0,47,48,47,47,49,47,23,47,49,47,47,23,100,5,5,100,100,100,100,100,100,0,0,84,85,86,87,88,0,0,0,0,0,0,0,0,0,0,0,0,0,0,0,0,85,86,87,85,86,87,88,0,0,0,0,79,81,82,83,0,0,0,
0,0,41,39,40,0,41,39,40,0,0,0,85,86,87,88,0,0,0,0,0,0,0,0,0,41,39,40,0,0,0,0,0,0,0,0,0,0,0,0,6,7,8,0,0,41,39,40,0,0,0,0,0,0,0,0,0,0,0,0,84,85,86,87,88,0,0,0,0,0,0,0,41,39,40,84,85,86,87,85,86,87,88,0,0,0,74,75,77,78,0,0,0,0,0,0,0,0,0,0,0,0,0,0,0,0,0,79,80,81,82,83,0,0,0,0,0,96,97,98,99,0,0,0,0,0,0,0,0,0,79,80,81,82,83,0,0,0,0,0,0,0,0,84,87,85,86,87,88,0,0,41,39,40,0,0,0,0,0,0,0,0,0,0,0,0,0,0,0,0,0,0,0,0,0,0,0,0,47,25,48,47,49,47,48,47,49,47,47,100,48,5,5,100,100,100,100,100,100,95,0,0,0,0,0,0,0,0,0,0,0,18,2,2,2,2,2,2,2,2,3,0,0,41,39,40,0,0,0,0,0,0,0,0,0,0,41,39,40,0,
0,0,38,36,37,0,38,36,37,0,0,0,0,0,0,0,0,0,0,0,0,0,0,0,0,38,36,37,0,0,0,0,0,1,2,2,3,0,0,0,0,0,0,0,0,38,36,37,0,0,0,0,0,0,0,0,0,0,0,0,0,0,0,0,0,0,0,0,0,0,0,0,38,36,37,0,0,0,0,0,0,0,0,0,0,0,79,80,82,83,0,0,0,0,85,86,86,87,88,0,0,0,0,0,0,0,0,0,0,0,0,0,1,2,2,2,2,2,2,2,2,2,19,0,0,0,0,84,87,85,86,87,88,0,0,0,0,0,0,0,0,0,0,0,0,0,0,0,0,0,0,38,36,37,0,0,0,18,2,2,2,2,2,2,2,2,2,2,2,2,2,19,0,74,75,77,78,0,48,48,25,47,49,48,47,100,49,47,100,100,100,5,5,100,100,100,100,100,100,100,0,0,0,0,0,0,0,0,0,0,18,17,22,22,22,24,22,22,22,22,12,0,0,38,36,37,0,0,0,0,0,0,0,0,0,0,38,36,37,0,
0,0,42,35,43,0,42,35,43,0,0,0,0,0,0,0,0,0,0,0,0,0,0,0,0,42,35,43,0,0,0,0,0,6,7,7,8,0,0,0,0,0,0,0,0,42,35,43,0,0,0,0,0,0,0,1,2,2,2,3,0,0,0,0,0,0,0,0,0,0,0,0,42,35,43,0,0,0,0,0,0,0,0,0,0,0,0,0,0,0,0,0,0,0,0,0,0,0,0,0,0,0,0,0,0,0,0,0,0,0,0,0,11,5,5,5,5,5,5,5,5,5,20,19,0,0,0,0,0,0,0,0,0,0,0,0,0,0,0,0,0,0,0,0,0,0,0,0,0,0,0,42,35,43,0,0,18,17,22,22,23,22,22,23,22,48,23,22,22,22,22,20,19,79,80,82,83,94,47,48,47,47,49,47,47,100,49,47,100,100,48,5,5,100,100,100,100,100,100,100,95,0,0,0,0,0,0,0,0,18,17,22,22,22,22,23,22,22,24,22,12,0,0,42,35,43,0,0,0,0,0,0,0,0,0,0,42,35,43,0,
98,99,0,34,0,0,0,34,0,0,0,0,1,2,2,2,2,2,3,0,0,0,0,0,0,0,34,0,96,97,98,99,0,0,0,0,0,0,0,0,0,0,0,0,0,0,34,0,0,0,0,96,97,98,99,14,4,4,4,13,0,0,0,0,0,0,96,97,98,99,0,0,0,34,0,0,0,0,0,0,0,0,0,0,0,0,0,0,0,0,0,0,0,0,0,0,0,0,0,0,0,0,0,0,0,0,0,0,0,0,0,0,11,4,4,4,4,4,4,4,4,4,5,20,19,0,0,0,0,0,0,0,0,0,0,0,0,0,0,0,0,0,0,0,0,0,0,0,0,0,0,0,34,0,0,18,17,25,22,22,24,22,23,24,48,51,52,48,23,22,25,22,20,19,0,0,94,48,45,46,47,47,49,100,100,100,49,100,100,51,52,5,5,100,100,100,100,51,52,100,100,95,0,0,0,0,0,0,18,17,22,22,24,22,22,22,22,22,22,5,12,0,0,0,34,0,0,0,0,0,96,97,98,99,0,0,0,34,0,0,
2,2,2,2,2,2,2,2,2,2,2,2,15,5,5,5,5,5,16,2,2,2,2,2,2,2,2,2,2,2,2,2,2,2,2,2,2,61,61,61,61,61,61,2,2,2,2,2,2,2,2,2,2,2,2,15,5,5,5,16,2,2,2,2,2,2,2,2,2,2,2,2,2,2,2,2,2,2,2,2,2,2,2,2,2,2,2,3,0,0,1,2,2,3,0,0,0,1,2,2,2,3,0,0,1,2,2,2,2,2,2,2,15,5,5,5,5,5,5,5,5,5,16,2,2,2,2,2,2,2,26,27,26,27,2,2,2,26,27,26,27,2,2,26,27,26,27,26,27,26,2,2,2,2,2,2,2,2,2,2,2,2,2,2,2,2,2,2,2,2,2,2,2,2,2,2,2,2,2,2,2,2,2,63,63,63,2,2,50,2,2,2,2,2,2,2,2,2,2,2,50,2,2,2,2,2,2,2,2,2,2,2,2,2,2,2,2,2,2,2,2,2,2,2,2,2,2,2,2,2,2,2,2,2,2,2,2,2,2,2,
5,5,5,5,5,5,5,5,5,5,5,5,5,5,5,4,4,5,4,5,5,5,5,5,5,5,5,5,4,4,5,5,5,5,5,4,4,5,4,5,5,5,5,5,5,5,5,5,4,4,5,5,5,5,5,5,5,5,5,5,5,5,5,5,5,5,5,4,4,5,4,5,5,5,5,5,5,5,5,5,4,4,4,5,5,5,5,13,0,0,6,7,7,8,0,0,0,6,7,7,7,8,0,0,11,5,5,5,5,5,5,5,5,5,5,5,5,5,5,5,5,5,5,5,5,5,5,5,5,4,30,30,30,30,4,5,4,30,30,30,30,4,4,30,30,30,30,30,30,30,4,5,5,5,5,5,5,5,5,5,5,5,5,5,5,5,5,5,5,5,5,5,5,5,5,5,5,5,5,5,5,5,5,5,5,5,5,5,31,5,5,5,5,5,5,5,5,5,5,5,31,5,5,5,5,5,5,5,5,5,5,5,5,5,5,5,5,5,5,5,5,5,5,5,5,5,5,5,5,5,5,5,5,5,5,5,5,5,5,5,
0,0,0,0,0,0,0,0,0,0,0,0,0,0,0,0,5,5,5,5,5,5,5,5,5,5,5,5,5,5,5,5,0,0,0,0,0,0,0,0,0,0,0,0,0,0,0,0,0,0,0,0,0,0,0,0,0,0,0,0,0,0,0,0,0,0,0,0,0,0,0,0,0,0,0,0,0,0,0,0,0,0,0,0,0,0,0,0,0,0,0,0,0,0,0,0,100,100,47,47,47,100,100,100,100,100,100,100,100,100,100,100,100,100,100,100,100,49,100,100,100,100,47,5,5,5,5,5,5,5,5,5,5,5,5,5,5,5,5,5,47,5,5,5,5,5,5,5,47,100,47,47,47,47,100,100,100,100,100,100,100,47,47,47,49,100,47,49,100,100,100,100,47,5,5,5,5,5,5,5,5,5,5,5,5,5,5,5,31,5,5,5,5,5,5,5,47,47,100,100,31,100,100,47,5,5,5,5,0,0,0,0,0,0,0,0,0,0,0,0,0,0,0,0,0,0,0,0,0,0,0,0,0,0,0,0,0,0,0,0,
0,0,0,0,0,0,0,0,0,0,0,0,0,0,0,0,0,0,0,0,0,0,0,0,0,0,0,0,0,0,0,0,0,0,0,0,0,0,0,0,0,0,0,0,0,0,0,0,0,0,0,0,0,0,0,0,0,0,0,0,0,0,0,0,0,0,0,0,0,0,0,0,0,0,0,0,0,0,0,0,0,0,0,0,0,0,0,0,0,0,0,0,0,0,0,0,100,100,100,47,100,100,100,47,47,47,47,47,100,100,100,100,100,100,100,100,100,49,100,100,100,100,100,47,5,5,47,5,5,5,5,5,100,100,100,5,5,5,5,5,5,5,5,5,5,5,5,47,100,100,47,100,100,100,100,100,100,100,100,100,100,100,100,47,49,100,47,49,100,100,100,100,100,48,48,5,5,5,5,5,48,48,48,48,48,48,5,5,31,5,5,5,5,5,5,5,47,100,100,100,31,100,100,100,47,5,5,5,0,0,0,0,0,0,0,0,0,0,0,0,0,0,0,0,0,0,0,0,0,0,0,0,0,0,0,0,0,0,0,0,
0,0,0,0,0,0,0,0,0,0,0,0,0,0,0,0,0,0,0,0,0,0,0,0,0,0,0,0,0,0,0,0,0,0,0,0,0,0,0,0,0,0,0,0,0,0,0,0,0,0,0,0,0,0,0,0,0,0,0,0,0,0,0,0,0,0,0,0,0,0,0,0,0,0,0,0,0,0,0,0,0,0,0,0,0,0,0,0,0,0,0,0,0,0,0,0,100,100,100,47,47,100,47,47,47,47,100,47,47,47,100,100,100,100,100,100,100,49,100,100,100,100,100,100,47,5,5,5,5,100,100,100,100,100,100,5,5,5,5,5,5,5,47,5,5,5,47,100,100,100,100,100,100,100,47,100,100,47,100,100,100,100,100,100,49,100,48,49,100,100,47,47,47,47,100,48,5,5,5,48,48,100,100,100,100,48,48,5,31,5,5,5,5,5,5,47,100,100,100,100,31,100,100,100,100,5,5,5,0,0,0,0,0,0,0,0,0,0,0,0,0,0,0,0,0,0,0,0,0,0,0,0,0,0,0,0,0,0,0,0,
0,0,0,0,0,0,0,0,0,0,0,0,0,0,0,0,0,0,0,0,0,0,0,0,0,0,0,0,0,0,0,0,0,0,0,0,0,0,0,0,0,0,0,0,0,0,0,0,0,0,0,0,0,0,0,0,0,0,0,0,0,0,0,0,0,0,0,0,0,0,0,0,0,0,0,0,0,0,0,0,0,0,0,0,0,0,0,0,0,0,0,0,0,0,0,0,100,100,100,100,47,47,100,47,47,100,100,47,47,47,100,100,100,100,100,100,100,49,100,100,100,100,100,47,5,5,5,47,5,100,100,100,100,100,100,5,5,5,47,5,5,5,5,5,5,5,5,47,100,100,100,100,100,100,100,100,100,47,47,100,100,100,100,100,49,100,47,49,100,100,100,100,47,47,100,100,48,5,48,100,100,100,100,100,100,100,48,5,31,5,48,5,5,5,5,100,100,47,47,100,31,100,100,100,100,5,5,5,0,0,0,0,0,0,0,0,0,0,0,0,0,0,0,0,0,0,0,0,0,0,0,0,0,0,0,0,0,0,0,0,
0,0,0,0,0,0,0,0,0,0,0,0,0,0,0,0,0,0,0,0,0,0,0,0,0,0,0,0,0,0,0,0,0,0,0,0,0,0,0,0,0,0,0,0,0,0,0,0,0,0,0,0,0,0,0,0,0,0,0,0,0,0,0,0,0,0,0,0,0,0,0,0,0,0,0,0,0,0,0,0,0,0,0,0,0,0,0,0,0,0,0,0,0,0,0,0,100,100,100,100,100,47,47,47,100,100,47,47,100,100,100,100,100,100,100,100,100,49,100,100,100,100,100,100,47,5,5,5,5,5,100,100,100,100,100,5,5,5,5,47,47,5,5,5,5,5,47,100,100,100,100,100,100,100,100,100,100,100,47,47,47,100,100,100,49,100,47,49,100,47,47,47,100,100,100,100,100,48,100,100,100,100,100,100,100,100,100,48,48,48,100,5,5,5,5,100,100,100,47,47,31,100,100,100,100,100,5,5,0,0,0,0,0,0,0,0,0,0,0,0,0,0,0,0,0,0,0,0,0,0,0,0,0,0,0,0,0,0,0,0,
0,0,0,0,0,0,0,0,0,0,0,0,0,0,0,0,0,0,0,0,0,0,0,0,0,0,0,0,0,0,0,0,0,0,0,0,0,0,0,0,0,0,0,0,0,0,0,0,0,0,0,0,0,0,0,0,0,0,0,0,0,0,0,0,0,0,0,0,0,0,0,0,0,0,0,0,0,0,0,0,0,0,0,0,0,0,0,0,0,0,0,0,0,0,0,0,100,100,100,100,100,100,47,47,47,47,47,100,100,100,100,100,100,100,100,100,100,49,100,100,100,100,100,100,100,47,5,5,5,5,100,5,5,5,5,5,5,5,5,5,5,5,5,5,5,47,100,100,100,100,100,100,100,100,100,100,100,100,100,100,100,100,100,100,49,100,47,49,100,47,100,47,47,100,100,100,100,100,100,100,100,100,47,100,100,100,100,100,100,100,100,5,5,5,47,100,47,100,100,100,31,100,100,100,47,100,47,5,0,0,0,0,0,0,0,0,0,0,0,0,0,0,0,0,0,0,0,0,0,0,0,0,0,0,0,0,0,0,0,0,
0,0,0,0,0,0,0,0,0,0,0,0,0,0,0,0,0,0,0,0,0,0,0,0,0,0,0,0,0,0,0,0,0,0,0,0,0,0,0,0,0,0,0,0,0,0,0,0,0,0,0,0,0,0,0,0,0,0,0,0,0,0,0,0,0,0,0,0,0,0,0,0,0,0,0,0,0,0,0,0,0,0,0,0,0,0,0,0,0,0,0,0,0,0,0,0,100,100,100,100,100,100,100,100,100,100,100,100,100,100,100,100,91,93,62,62,62,91,92,92,93,47,100,100,100,100,47,47,47,47,47,47,47,47,47,47,47,47,47,47,47,47,47,47,47,100,100,100,100,100,100,100,100,100,100,100,100,47,100,100,100,100,100,100,49,100,47,49,100,100,100,100,100,100,100,100,100,100,100,47,47,100,100,100,100,100,100,100,100,100,5,5,5,47,100,100,47,47,100,100,31,100,47,47,47,100,47,5,0,0,0,0,0,0,0,0,0,0,0,0,0,0,0,0,0,0,0,0,0,0,0,0,0,0,0,0,0,0,0,0,
0,0,0,0,0,0,0,0,0,0,0,0,0,0,0,0,0,0,0,0,0,0,0,0,0,0,0,0,0,0,0,0,0,0,0,0,0,0,0,0,0,0,0,0,0,0,0,0,0,0,0,0,0,0,0,0,0,0,0,0,0,0,0,0,0,0,0,0,0,0,0,0,0,0,0,0,0,0,0,0,0,0,0,0,0,0,0,0,0,0,0,0,0,0,0,0,92,92,50,92,92,92,92,92,93,66,66,66,91,93,66,66,101,100,92,92,92,100,100,100,100,92,92,92,92,92,92,92,92,92,92,92,92,92,92,92,92,92,92,92,92,92,92,92,92,92,92,92,92,92,92,92,92,92,92,92,92,93,47,100,100,100,100,100,49,100,47,49,100,100,100,100,100,100,100,100,100,100,100,100,47,100,100,100,100,91,92,92,92,92,92,92,5,5,47,100,100,100,100,100,31,100,47,47,100,100,47,5,0,0,0,0,0,0,0,0,0,0,0,0,0,0,0,0,0,0,0,0,0,0,0,0,0,0,0,0,0,0,0,0,
0,0,0,0,0,0,0,0,0,0,0,0,0,0,0,0,0,0,0,0,0,0,0,0,0,0,0,0,0,0,0,0,0,0,0,0,0,0,0,0,0,0,0,0,0,0,0,0,0,0,0,0,0,0,0,0,0,0,0,0,0,0,0,0,0,0,0,0,0,0,0,0,0,0,0,0,0,0,0,0,0,0,0,0,0,0,0,0,0,0,0,0,0,0,0,0,47,47,31,47,47,47,47,47,102,68,67,68,101,89,68,67,101,100,100,100,100,100,100,100,100,100,100,100,100,100,100,100,100,100,100,100,100,100,100,100,100,100,100,100,100,100,100,100,100,100,100,100,100,100,100,100,100,100,100,100,100,100,92,92,92,92,92,66,66,66,66,66,92,92,92,92,93,46,45,44,100,100,100,100,100,100,100,100,100,101,48,48,48,48,48,48,5,5,5,100,100,100,47,100,31,100,47,100,100,47,5,5,0,0,0,0,0,0,0,0,0,0,0,0,0,0,0,0,0,0,0,0,0,0,0,0,0,0,0,0,0,0,0,0,
0,0,0,0,0,0,0,0,0,0,0,0,0,0,0,0,0,0,0,0,0,0,0,0,0,0,0,0,0,0,0,0,0,0,0,0,0,0,0,0,0,0,0,0,0,0,0,0,0,0,0,0,0,0,0,0,0,0,0,0,0,0,0,0,0,0,0,0,0,0,0,0,0,0,0,0,0,0,0,0,0,0,0,0,0,0,0,0,0,0,0,0,0,0,0,0,47,47,31,47,47,47,47,47,102,72,73,72,101,89,72,73,101,100,100,100,100,100,100,100,100,100,100,100,100,100,100,100,100,100,100,100,100,100,100,100,100,100,100,100,100,100,100,100,100,100,100,100,100,100,100,100,100,100,100,100,100,100,100,100,100,100,100,68,67,68,67,68,100,100,100,100,100,92,92,92,92,92,92,92,93,100,100,100,100,101,48,48,48,48,48,48,5,5,100,100,100,100,100,100,31,100,100,100,100,5,5,5,0,0,0,0,0,0,0,0,0,0,0,0,0,0,0,0,0,0,0,0,0,0,0,0,0,0,0,0,0,0,0,0,
0,0,0,0,0,0,0,0,0,0,0,0,0,0,0,0,0,0,0,0,0,0,0,0,0,0,0,0,0,0,0,0,0,0,0,0,0,0,0,0,0,0,0,0,0,0,0,0,0,0,0,0,0,0,0,0,0,0,0,0,0,0,0,0,0,0,0,0,0,0,0,0,0,0,0,0,0,0,0,0,0,0,0,0,0,0,0,0,0,0,0,0,0,0,0,0,47,100,31,100,100,100,47,47,47,5,73,73,73,73,73,5,47,47,100,100,47,47,100,100,47,47,47,100,100,100,100,100,100,100,47,47,100,100,100,100,100,100,100,100,100,100,100,100,100,100,100,100,100,47,47,47,47,100,100,100,47,47,47,100,47,100,100,100,100,100,100,100,100,100,100,100,100,100,47,5,5,5,5,5,5,5,5,5,5,5,5,5,5,5,5,5,5,47,100,100,100,100,100,100,31,100,100,100,100,5,5,5,0,0,0,0,0,0,0,0,0,0,0,0,0,0,0,0,0,0,0,0,0,0,0,0,0,0,0,0,0,0,0,0,
0,0,0,0,0,0,0,0,0,0,0,0,0,0,0,0,0,0,0,0,0,0,0,0,0,0,0,0,0,0,0,0,0,0,0,0,0,0,0,0,0,0,0,0,0,0,0,0,0,0,0,0,0,0,0,0,0,0,0,0,0,0,0,0,0,0,0,0,0,0,0,0,0,0,0,0,0,0,0,0,0,0,0,0,0,0,0,0,0,0,0,0,0,0,0,0,100,100,31,100,100,100,100,100,47,47,5,5,5,5,5,47,47,100,100,47,47,100,100,100,47,47,47,47,47,47,100,100,100,100,100,100,100,47,47,100,100,100,100,100,100,100,100,100,100,100,100,100,100,100,100,100,47,100,100,100,100,100,47,100,100,100,100,100,100,100,100,47,100,100,47,100,100,100,100,47,47,47,47,5,5,5,5,5,5,5,5,5,5,5,5,5,47,100,100,47,47,47,100,100,31,100,100,100,100,47,5,5,0,0,0,0,0,0,0,0,0,0,0,0,0,0,0,0,0,0,0,0,0,0,0,0,0,0,0,0,0,0,0,0,
0,0,0,0,0,0,0,0,0,0,0,0,0,0,0,0,0,0,0,0,0,0,0,0,0,0,0,0,0,0,0,0,0,0,0,0,0,0,0,0,0,0,0,0,0,0,0,0,0,0,0,0,0,0,0,0,0,0,0,0,0,0,0,0,0,0,0,0,0,0,0,0,0,0,0,0,0,0,0,0,0,0,0,0,0,0,0,0,0,0,0,0,0,0,0,0,100,100,31,100,100,100,100,100,100,100,100,100,100,100,100,100,100,100,100,47,100,100,47,100,100,100,47,47,100,47,47,100,100,100,100,100,100,100,47,100,100,100,100,100,100,100,100,100,100,100,100,100,100,100,100,100,100,100,100,100,100,100,100,100,100,100,100,100,100,100,100,100,47,47,47,100,100,100,100,100,100,100,100,47,47,5,5,47,100,100,47,5,5,5,47,47,100,100,100,47,47,47,100,100,31,100,100,100,100,100,47,5,0,0,0,0,0,0,0,0,0,0,0,0,0,0,0,0,0,0,0,0,0,0,0,0,0,0,0,0,0,0,0,0,
0,0,0,0,0,0,0,0,0,0,0,0,0,0,0,0,0,0,0,0,0,0,0,0,0,0,0,0,0,0,0,0,0,0,0,0,0,0,0,0,0,0,0,0,0,0,0,0,0,0,0,0,0,0,0,0,0,0,0,0,0,0,0,0,0,0,0,0,0,0,0,0,0,0,0,0,0,0,0,0,0,0,0,0,0,0,0,0,0,0,0,0,0,0,0,0,100,100,31,100,100,100,100,100,100,100,100,100,100,100,100,100,100,100,100,47,100,100,100,100,100,47,100,100,100,100,47,100,100,100,100,100,47,47,47,100,100,47,91,92,92,92,93,47,100,100,100,100,100,100,100,100,100,47,100,100,100,100,100,100,100,100,100,100,100,100,100,100,47,47,47,100,100,47,47,47,100,100,100,100,100,100,100,100,100,47,100,47,47,47,100,100,100,100,100,100,47,100,100,100,100,100,100,47,47,100,47,5,0,0,0,0,0,0,0,0,0,0,0,0,0,0,0,0,0,0,0,0,0,0,0,0,0,0,0,0,0,0,0,0,
0,0,0,0,0,0,0,0,0,0,0,0,0,0,0,0,0,0,0,0,0,0,0,0,0,0,0,0,0,0,0,0,0,0,0,0,0,0,0,0,0,0,0,0,0,0,0,0,0,0,0,0,0,0,0,0,0,0,0,0,0,0,0,0,0,0,0,0,0,0,0,0,0,0,0,0,0,0,0,0,0,0,0,0,0,0,0,0,0,0,0,0,0,0,0,0,92,92,92,92,93,47,100,100,100,100,100,100,100,100,100,100,100,100,100,100,100,100,100,100,100,100,100,100,47,100,100,100,100,100,100,100,100,100,100,100,100,47,101,47,47,47,102,47,100,100,91,92,92,92,92,92,93,47,100,100,100,100,100,100,100,100,100,100,100,100,100,100,100,100,100,47,100,100,100,100,100,100,100,100,100,100,100,100,47,100,100,100,100,100,100,100,100,47,47,47,100,100,100,100,100,100,47,47,100,100,47,5,0,0,0,0,0,0,0,0,0,0,0,0,0,0,0,0,0,0,0,0,0,0,0,0,0,0,0,0,0,0,0,0,
0,0,0,0,0,0,0,0,0,0,0,0,0,0,0,0,0,0,0,0,0,0,0,0,0,0,0,0,0,0,0,0,0,0,0,0,0,0,0,0,0,0,0,0,0,0,0,0,0,0,0,0,0,0,0,0,0,0,0,0,0,0,0,0,0,0,0,0,0,0,0,0,0,0,0,0,0,0,0,0,0,0,0,0,0,0,0,0,0,0,0,0,0,0,0,0,47,47,47,47,102,47,100,100,100,100,100,100,100,100,100,100,100,100,100,100,100,100,100,47,47,100,100,100,100,100,100,100,100,47,91,92,92,92,93,47,100,47,101,47,47,47,102,47,100,100,103,104,104,104,104,104,105,47,100,100,100,100,100,91,92,93,47,100,100,91,92,93,47,100,100,100,100,100,100,100,100,47,47,100,100,47,47,47,47,100,100,100,100,100,100,100,100,100,100,100,47,100,100,100,100,100,100,100,100,47,5,5,0,0,0,0,0,0,0,0,0,0,0,0,0,0,0,0,0,0,0,0,0,0,0,0,0,0,0,0,0,0,0,0,
0,0,0,0,0,0,0,0,0,0,0,0,0,0,0,0,0,0,0,0,0,0,0,0,0,0,0,0,0,0,0,0,0,0,0,0,0,0,0,0,0,0,0,0,0,0,0,0,0,0,0,0,0,0,0,0,0,0,0,0,0,0,0,0,0,0,0,0,0,0,0,0,0,0,0,0,0,0,0,0,0,0,0,0,0,0,0,0,0,0,0,0,0,0,0,0,47,47,47,47,102,47,100,100,100,47,91,92,92,92,92,92,92,93,47,100,100,47,100,100,100,100,100,100,100,100,100,100,100,47,101,47,47,47,102,47,100,47,101,47,47,47,102,47,100,100,47,100,100,100,100,100,100,100,100,100,100,100,100,103,104,105,47,100,100,103,104,105,47,100,100,100,100,100,100,100,100,100,100,100,100,100,47,47,47,100,100,100,100,100,100,100,100,100,100,100,100,100,100,100,100,100,100,100,47,5,5,5,0,0,0,0,0,0,0,0,0,0,0,0,0,0,0,0,0,0,0,0,0,0,0,0,0,0,0,0,0,0,0,0,
0,0,0,0,0,0,0,0,0,0,0,0,0,0,0,0,0,0,0,0,0,0,0,0,0,0,0,0,0,0,0,0,0,0,0,0,0,0,0,0,0,0,0,0,0,0,0,0,0,0,0,0,0,0,0,0,0,0,0,0,0,0,0,0,0,0,0,0,0,0,0,0,0,0,0,0,0,0,0,0,0,0,0,0,0,0,0,0,0,0,0,0,0,0,0,0,92,92,92,92,92,92,92,92,92,92,92,101,47,47,47,47,47,102,47,100,100,100,100,100,100,100,100,100,100,100,100,100,100,47,101,47,47,47,102,47,100,47,101,47,47,47,102,47,100,100,100,47,47,100,100,100,100,100,100,100,100,100,100,100,100,100,100,100,100,100,100,100,100,100,100,100,100,100,100,100,100,100,100,100,100,100,100,100,100,100,100,100,100,100,100,100,100,100,47,47,47,47,47,100,100,100,100,47,5,5,5,5,0,0,0,0,0,0,0,0,0,0,0,0,0,0,0,0,0,0,0,0,0,0,0,0,0,0,0,0,0,0,0,0,
0,0,0,0,0,0,0,0,0,0,0,0,0,0,0,0,0,0,0,0,0,0,0,0,0,0,0,0,0,0,0,0,0,0,0,0,0,0,0,0,0,0,0,0,0,0,0,0,0,0,0,0,0,0,0,0,0,0,0,0,0,0,0,0,0,0,0,0,0,0,0,0,0,0,0,0,0,0,0,0,0,0,0,0,0,0,0,0,0,0,0,0,0,0,0,0,47,47,47,47,47,47,47,47,47,47,47,101,47,47,47,47,47,47,92,92,92,92,92,92,92,92,92,92,92,92,92,92,92,92,92,92,92,92,93,63,63,63,101,47,47,47,102,63,63,63,63,63,63,63,63,63,63,91,93,63,63,63,63,63,63,63,63,63,63,63,63,63,63,63,63,63,91,92,92,92,92,93,66,66,66,91,92,92,92,92,92,92,92,92,92,92,92,92,92,92,92,92,92,92,92,92,92,92,92,92,92,92,0,0,0,0,0,0,0,0,0,0,0,0,0,0,0,0,0,0,0,0,0,0,0,0,0,0,0,0,0,0,0,0,
0,0,0,0,0,0,0,0,0,0,0,0,0,0,0,0,0,0,0,0,0,0,0,0,0,0,0,0,0,0,0,0,0,0,0,0,0,0,0,0,0,0,0,0,0,0,0,0,0,0,0,0,0,0,0,0,0,0,0,0,0,0,0,0,0,0,0,0,0,0,0,0,0,0,0,0,0,0,0,0,0,0,0,0,0,0,0,0,0,0,0,0,0,0,0,0,47,47,47,47,47,47,47,47,47,47,47,101,47,47,47,47,47,47,47,47,47,47,47,47,47,47,47,47,47,47,47,47,47,47,47,47,47,47,47,92,92,92,47,47,47,47,47,92,92,92,92,92,92,92,92,92,92,47,47,92,92,92,92,92,92,92,92,92,92,92,92,92,92,92,92,92,47,47,47,47,47,47,67,68,67,47,47,47,47,47,47,47,47,47,47,47,47,47,47,47,47,47,47,47,47,47,47,47,47,47,47,47,0,0,0,0,0,0,0,0,0,0,0,0,0,0,0,0,0,0,0,0,0,0,0,0,0,0,0,0,0,0,0,0
</data>
 </layer>
 <objectgroup id="2" name="entities">
  <object id="1" name="player1" type="player" x="16" y="96" width="16" height="32">
   <properties>
    <property name="dir" type="int" propertytype="dir" value="1"/>
   </properties>
  </object>
  <object id="7" name="rock" type="object" x="672" y="32" width="16" height="16"/>
  <object id="26" name="rock" type="object" x="976" y="112" width="16" height="16">
   <properties>
    <property name="dir" type="int" value="0"/>
   </properties>
  </object>
  <object id="27" name="egg" type="object" x="960" y="112" width="16" height="16">
   <properties>
    <property name="dir" type="int" value="0"/>
   </properties>
  </object>
  <object id="28" name="rock" type="object" x="960" y="96" width="16" height="16">
   <properties>
    <property name="dir" type="int" value="0"/>
   </properties>
  </object>
  <object id="13" name="rock" type="object" x="1776" y="112" width="16" height="16"/>
  <object id="36" name="checkpoint" type="object" x="1824" y="48" width="16" height="30">
   <properties>
    <property name="dir" type="int" propertytype="dir" value="1"/>
   </properties>
  </object>
  <object id="43" name="checkpoint" type="object" x="3008" y="240" width="16" height="30">
   <properties>
    <property name="dir" type="int" propertytype="dir" value="0"/>
   </properties>
  </object>
  <object id="88" name="checkpoint" type="object" x="1584" y="352" width="16" height="30">
   <properties>
    <property name="dir" type="int" propertytype="dir" value="0"/>
   </properties>
  </object>
  <object id="44" name="rock" type="object" x="2320" y="256" width="16" height="16"/>
  <object id="45" name="rock" type="object" x="2128" y="224" width="16" height="16"/>
  <object id="47" name="item" type="object" x="2144" y="224" width="16" height="16">
   <properties>
    <property name="spare" type="int" propertytype="items" value="1"/>
   </properties>
  </object>
  <object id="46" name="rock" type="object" x="2144" y="208" width="16" height="16"/>
  <object id="50" name="endLevel" type="object" x="3776" y="64" width="16" height="16"/>
  <object id="52" name="stopScroll" type="trigger" x="1408" y="128" width="16" height="16">
   <properties>
    <property name="spare" type="int" propertytype="stopScroll" value="4"/>
   </properties>
  </object>
  <object id="57" name="stopScroll" type="trigger" x="2080" y="128" width="64" height="32">
   <properties>
    <property name="spare" type="int" propertytype="stopScroll" value="4"/>
   </properties>
  </object>
  <object id="61" name="stopScroll" type="trigger" x="2928" y="304" width="16" height="16">
   <properties>
    <property name="spare" type="int" propertytype="stopScroll" value="4"/>
   </properties>
  </object>
  <object id="62" name="stopScroll" type="trigger" x="1536" y="288" width="16" height="16">
   <properties>
    <property name="spare" type="int" propertytype="stopScroll" value="1"/>
   </properties>
  </object>
  <object id="68" name="stopScroll" type="trigger" x="1536" y="336" width="16" height="16">
   <properties>
    <property name="spare" type="int" propertytype="stopScroll" value="1"/>
   </properties>
  </object>
  <object id="64" name="stopScroll" type="trigger" x="1504" y="128" width="16" height="16">
   <properties>
    <property name="spare" type="int" propertytype="stopScroll" value="4"/>
   </properties>
  </object>
  <object id="65" name="stopScroll" type="trigger" x="1632" y="128" width="16" height="16">
   <properties>
    <property name="spare" type="int" propertytype="stopScroll" value="4"/>
   </properties>
  </object>
  <object id="66" name="stopScroll" type="trigger" x="2192" y="128" width="64" height="32">
   <properties>
    <property name="spare" type="int" propertytype="stopScroll" value="4"/>
   </properties>
  </object>
  <object id="67" name="stopScroll" type="trigger" x="2304" y="128" width="64" height="32">
   <properties>
    <property name="spare" type="int" propertytype="stopScroll" value="4"/>
   </properties>
  </object>
  <object id="69" name="stopScroll" type="trigger" x="3072" y="48" width="16" height="16">
   <properties>
    <property name="spare" type="int" propertytype="stopScroll" value="3"/>
   </properties>
  </object>
  <object id="70" name="stopScroll" type="trigger" x="3072" y="224" width="16" height="16">
   <properties>
    <property name="spare" type="int" propertytype="stopScroll" value="3"/>
   </properties>
  </object>
  <object id="74" name="stopScroll" type="trigger" x="3328" y="224" width="16" height="16">
   <properties>
    <property name="spare" type="int" propertytype="stopScroll" value="2"/>
   </properties>
  </object>
  <object id="75" name="stopScroll" type="trigger" x="3328" y="352" width="16" height="16">
   <properties>
    <property name="spare" type="int" propertytype="stopScroll" value="2"/>
   </properties>
  </object>
  <object id="78" name="stopScroll" type="trigger" x="2288" y="320" width="16" height="16">
   <properties>
    <property name="spare" type="int" propertytype="stopScroll" value="8"/>
   </properties>
  </object>
  <object id="79" name="stopScroll" type="trigger" x="2304" y="320" width="16" height="16">
   <properties>
    <property name="spare" type="int" propertytype="stopScroll" value="8"/>
   </properties>
  </object>
  <object id="80" name="stopScroll" type="trigger" x="2560" y="320" width="16" height="16">
   <properties>
    <property name="spare" type="int" propertytype="stopScroll" value="8"/>
   </properties>
  </object>
  <object id="84" name="egg" type="object" x="2784" y="432" width="16" height="16">
   <properties>
    <property name="dir" type="int" value="0"/>
   </properties>
  </object>
  <object id="85" name="trice" type="enemy" x="3088" y="96" width="48" height="32">
   <properties>
    <property name="dir" type="int" propertytype="dir" value="1"/>
   </properties>
  </object>
  <object id="3" name="raptor" type="enemy" x="336" y="96" width="46" height="32">
   <properties>
    <property name="dir" type="int" value="0"/>
   </properties>
  </object>
  <object id="25" name="raptor" type="enemy" x="800" y="96" width="50" height="32">
   <properties>
    <property name="dir" type="int" value="0"/>
   </properties>
  </object>
  <object id="24" name="raptor" type="enemy" x="1280" y="96" width="50" height="32">
   <properties>
    <property name="dir" type="int" value="0"/>
   </properties>
  </object>
  <object id="48" name="raptor" type="enemy" x="2416" y="240" width="50" height="32">
   <properties>
    <property name="dir" type="int" propertytype="dir" value="0"/>
   </properties>
  </object>
  <object id="39" name="ptero" type="enemy" x="2560" y="32" width="50" height="20">
   <properties>
    <property name="dir" type="int" value="0"/>
   </properties>
  </object>
  <object id="40" name="ptero" type="enemy" x="2672" y="32" width="50" height="20">
   <properties>
    <property name="dir" type="int" value="0"/>
   </properties>
  </object>
  <object id="10" name="spider" type="enemy" x="2912" y="48" width="16" height="16">
   <properties>
    <property name="dir" type="int" propertytype="dir" value="0"/>
   </properties>
  </object>
  <object id="41" name="spider" type="enemy" x="2672" y="224" width="16" height="16">
   <properties>
    <property name="dir" type="int" propertytype="dir" value="0"/>
   </properties>
  </object>
  <object id="42" name="spider" type="enemy" x="2624" y="192" width="16" height="16">
   <properties>
    <property name="dir" type="int" propertytype="dir" value="0"/>
   </properties>
  </object>
  <object id="49" name="spider" type="enemy" x="1872" y="176" width="16" height="16">
   <properties>
    <property name="dir" type="int" propertytype="dir" value="0"/>
   </properties>
  </object>
  <object id="12" name="piranha" type="enemy" x="2080" y="128" width="32" height="32">
   <properties>
    <property name="dir" type="int" value="1"/>
   </properties>
  </object>
  <object id="29" name="piranha" type="enemy" x="2192" y="128" width="32" height="32">
   <properties>
    <property name="dir" type="int" value="1"/>
   </properties>
  </object>
  <object id="30" name="piranha" type="enemy" x="2288" y="128" width="32" height="32">
   <properties>
    <property name="dir" type="int" propertytype="dir" value="1"/>
    <property name="spare" type="int" value="0"/>
   </properties>
  </object>
  <object id="34" name="piranha" type="enemy" x="2336" y="128" width="32" height="32">
   <properties>
    <property name="dir" type="int" value="1"/>
    <property name="spare" type="int" value="60"/>
   </properties>
  </object>
  <object id="71" name="ptero" type="enemy" x="3168" y="256" width="50" height="20">
   <properties>
    <property name="dir" type="int" propertytype="dir" value="0"/>
    <property name="spare" type="int" value="50"/>
   </properties>
  </object>
  <object id="72" name="ptero" type="enemy" x="3200" y="192" width="50" height="20">
   <properties>
    <property name="dir" type="int" propertytype="dir" value="1"/>
    <property name="spare" type="int" value="50"/>
   </properties>
  </object>
  <object id="73" name="ptero" type="enemy" x="3184" y="352" width="50" height="20">
   <properties>
    <property name="dir" type="int" propertytype="dir" value="1"/>
    <property name="spare" type="int" value="50"/>
   </properties>
  </object>
  <object id="77" name="trice" type="enemy" x="1968" y="416" width="48" height="32">
   <properties>
    <property name="dir" type="int" propertytype="dir" value="0"/>
   </properties>
  </object>
  <object id="81" name="spider" type="enemy" x="2496" y="368" width="16" height="16">
   <properties>
    <property name="dir" type="int" propertytype="dir" value="0"/>
   </properties>
  </object>
  <object id="83" name="trice" type="enemy" x="2992" y="416" width="48" height="32">
   <properties>
    <property name="dir" type="int" propertytype="dir" value="0"/>
   </properties>
  </object>
  <object id="86" name="raptor" type="enemy" x="3632" y="96" width="50" height="32">
   <properties>
    <property name="dir" type="int" propertytype="dir" value="0"/>
   </properties>
  </object>
  <object id="89" name="checkpoint" type="object" x="3232" y="96" width="16" height="30">
   <properties>
    <property name="dir" type="int" propertytype="dir" value="0"/>
   </properties>
  </object>
  <object id="90" name="raptor" type="enemy" x="1728" y="96" width="50" height="32">
   <properties>
    <property name="dir" type="int" propertytype="dir" value="1"/>
   </properties>
  </object>
  <object id="91" name="ptero" type="enemy" x="1568" y="80" width="50" height="20">
   <properties>
    <property name="dir" type="int" propertytype="dir" value="0"/>
   </properties>
  </object>
 </objectgroup>
</map>
