<?xml version="1.0" encoding="UTF-8"?>
<map version="1.10" tiledversion="1.12.2" orientation="orthogonal" renderorder="right-down" width="160" height="10" tilewidth="16" tileheight="16" infinite="0" backgroundcolor="#1d1a1a" nextlayerid="3" nextobjectid="8">
 <tileset firstgid="1" name="medieval" tilewidth="16" tileheight="16" tilecount="200" columns="10">
  <image source="../../dev/gfx/maps/medieval/medieval-tiles.aseprite" width="160" height="320"/>
  <tile id="29" type="tile_NO_SOLID">
   <properties>
    <property name="property" type="int" propertytype="tileProperties" value="1"/>
   </properties>
  </tile>
  <tile id="39" type="tile_NO_SOLID">
   <properties>
    <property name="property" type="int" propertytype="tileProperties" value="1"/>
   </properties>
  </tile>
  <tile id="40" type="tile_NO_SOLID">
   <properties>
    <property name="property" type="int" propertytype="tileProperties" value="1"/>
   </properties>
  </tile>
  <tile id="41" type="tile_NO_SOLID">
   <properties>
    <property name="property" type="int" propertytype="tileProperties" value="1"/>
   </properties>
  </tile>
  <tile id="42" type="tile_NO_SOLID">
   <properties>
    <property name="property" type="int" propertytype="tileProperties" value="1"/>
   </properties>
  </tile>
  <tile id="43" type="tile_NO_SOLID">
   <properties>
    <property name="property" type="int" propertytype="tileProperties" value="1"/>
   </properties>
  </tile>
  <tile id="49" type="tile_NO_SOLID">
   <properties>
    <property name="property" type="int" propertytype="tileProperties" value="1"/>
   </properties>
  </tile>
  <tile id="50" type="tile_NO_SOLID">
   <properties>
    <property name="property" type="int" propertytype="tileProperties" value="1"/>
   </properties>
  </tile>
  <tile id="51" type="tile_NO_SOLID">
   <properties>
    <property name="property" type="int" propertytype="tileProperties" value="1"/>
   </properties>
  </tile>
  <tile id="52" type="tile_NO_SOLID">
   <properties>
    <property name="property" type="int" propertytype="tileProperties" value="1"/>
   </properties>
  </tile>
  <tile id="53" type="tile_NO_SOLID">
   <properties>
    <property name="property" type="int" propertytype="tileProperties" value="1"/>
   </properties>
  </tile>
  <tile id="57" type="tile_NO_SOLID">
   <properties>
    <property name="property" type="int" propertytype="tileProperties" value="1"/>
   </properties>
  </tile>
  <tile id="58" type="tile_NO_SOLID">
   <properties>
    <property name="property" type="int" propertytype="tileProperties" value="1"/>
   </properties>
  </tile>
  <tile id="59" type="tile_TOP_STAIR">
   <properties>
    <property name="property" type="int" propertytype="tileProperties" value="128"/>
   </properties>
  </tile>
  <tile id="62" type="tile_NO_SOLID">
   <properties>
    <property name="property" type="int" propertytype="tileProperties" value="1"/>
   </properties>
  </tile>
  <tile id="63" type="tile_NO_SOLID">
   <properties>
    <property name="property" type="int" propertytype="tileProperties" value="1"/>
   </properties>
  </tile>
  <tile id="67" type="tile_NO_SOLID">
   <properties>
    <property name="property" type="int" propertytype="tileProperties" value="1"/>
   </properties>
  </tile>
  <tile id="68" type="tile_NO_SOLID">
   <properties>
    <property name="property" type="int" propertytype="tileProperties" value="1"/>
   </properties>
  </tile>
  <tile id="69" type="tile_STAIR">
   <properties>
    <property name="property" type="int" propertytype="tileProperties" value="256"/>
   </properties>
  </tile>
  <tile id="74" type="tile_NO_SOLID">
   <properties>
    <property name="property" type="int" propertytype="tileProperties" value="1"/>
   </properties>
  </tile>
  <tile id="75" type="tile_NO_SOLID">
   <properties>
    <property name="property" type="int" propertytype="tileProperties" value="1"/>
   </properties>
  </tile>
  <tile id="76" type="tile_NO_SOLID">
   <properties>
    <property name="property" type="int" propertytype="tileProperties" value="1"/>
   </properties>
  </tile>
  <tile id="77" type="tile_NO_SOLID">
   <properties>
    <property name="property" type="int" propertytype="tileProperties" value="1"/>
   </properties>
  </tile>
  <tile id="78" type="tile_NO_SOLID">
   <properties>
    <property name="property" type="int" propertytype="tileProperties" value="1"/>
   </properties>
  </tile>
  <tile id="79" type="tile_NO_SOLID">
   <properties>
    <property name="property" type="int" propertytype="tileProperties" value="1"/>
   </properties>
  </tile>
  <tile id="80" type="tile_NO_SOLID">
   <properties>
    <property name="property" type="int" propertytype="tileProperties" value="1"/>
   </properties>
  </tile>
  <tile id="81" type="tile_NO_SOLID">
   <properties>
    <property name="property" type="int" propertytype="tileProperties" value="1"/>
   </properties>
  </tile>
  <tile id="82" type="tile_NO_SOLID">
   <properties>
    <property name="property" type="int" propertytype="tileProperties" value="1"/>
   </properties>
  </tile>
  <tile id="83" type="tile_NO_SOLID">
   <properties>
    <property name="property" type="int" propertytype="tileProperties" value="1"/>
   </properties>
  </tile>
  <tile id="84" type="tile_NO_SOLID">
   <properties>
    <property name="property" type="int" propertytype="tileProperties" value="1"/>
   </properties>
  </tile>
  <tile id="85" type="tile_NO_SOLID">
   <properties>
    <property name="property" type="int" propertytype="tileProperties" value="1"/>
   </properties>
  </tile>
  <tile id="86" type="tile_NO_SOLID">
   <properties>
    <property name="property" type="int" propertytype="tileProperties" value="1"/>
   </properties>
  </tile>
  <tile id="87" type="tile_NO_SOLID">
   <properties>
    <property name="property" type="int" propertytype="tileProperties" value="1"/>
   </properties>
  </tile>
  <tile id="88" type="tile_NO_SOLID">
   <properties>
    <property name="property" type="int" propertytype="tileProperties" value="1"/>
   </properties>
  </tile>
  <tile id="89" type="tile_NO_SOLID">
   <properties>
    <property name="property" type="int" propertytype="tileProperties" value="1"/>
   </properties>
  </tile>
  <tile id="90" type="tile_NO_SOLID">
   <properties>
    <property name="property" type="int" propertytype="tileProperties" value="1"/>
   </properties>
  </tile>
  <tile id="91" type="tile_NO_SOLID">
   <properties>
    <property name="property" type="int" propertytype="tileProperties" value="1"/>
   </properties>
  </tile>
  <tile id="92" type="tile_NO_SOLID">
   <properties>
    <property name="property" type="int" propertytype="tileProperties" value="1"/>
   </properties>
  </tile>
  <tile id="93" type="tile_NO_SOLID">
   <properties>
    <property name="property" type="int" propertytype="tileProperties" value="1"/>
   </properties>
  </tile>
  <tile id="94" type="tile_NO_SOLID">
   <properties>
    <property name="property" type="int" propertytype="tileProperties" value="1"/>
   </properties>
  </tile>
  <tile id="95" type="tile_NO_SOLID">
   <properties>
    <property name="property" type="int" propertytype="tileProperties" value="1"/>
   </properties>
  </tile>
  <tile id="96" type="tile_NO_SOLID">
   <properties>
    <property name="property" type="int" propertytype="tileProperties" value="1"/>
   </properties>
  </tile>
  <tile id="97" type="tile_NO_SOLID">
   <properties>
    <property name="property" type="int" propertytype="tileProperties" value="1"/>
   </properties>
  </tile>
  <tile id="98" type="tile_NO_SOLID">
   <properties>
    <property name="property" type="int" propertytype="tileProperties" value="1"/>
   </properties>
  </tile>
  <tile id="99" type="tile_NO_SOLID">
   <properties>
    <property name="property" type="int" propertytype="tileProperties" value="1"/>
   </properties>
  </tile>
  <tile id="100" type="tile_NO_SOLID">
   <properties>
    <property name="property" type="int" propertytype="tileProperties" value="1"/>
   </properties>
  </tile>
  <tile id="101" type="tile_NO_SOLID">
   <properties>
    <property name="property" type="int" propertytype="tileProperties" value="1"/>
   </properties>
  </tile>
  <tile id="102" type="tile_NO_SOLID">
   <properties>
    <property name="property" type="int" propertytype="tileProperties" value="1"/>
   </properties>
  </tile>
  <tile id="103" type="tile_NO_SOLID">
   <properties>
    <property name="property" type="int" propertytype="tileProperties" value="1"/>
   </properties>
  </tile>
  <tile id="104" type="tile_NO_SOLID">
   <properties>
    <property name="property" type="int" propertytype="tileProperties" value="1"/>
   </properties>
  </tile>
  <tile id="105" type="tile_NO_SOLID">
   <properties>
    <property name="property" type="int" propertytype="tileProperties" value="1"/>
   </properties>
  </tile>
  <tile id="110" type="tile_NO_SOLID">
   <properties>
    <property name="property" type="int" propertytype="tileProperties" value="1"/>
   </properties>
  </tile>
  <tile id="111" type="tile_NO_SOLID">
   <properties>
    <property name="property" type="int" propertytype="tileProperties" value="1"/>
   </properties>
  </tile>
  <tile id="112" type="tile_NO_SOLID">
   <properties>
    <property name="property" type="int" propertytype="tileProperties" value="1"/>
   </properties>
  </tile>
  <tile id="113" type="tile_NO_SOLID">
   <properties>
    <property name="property" type="int" propertytype="tileProperties" value="1"/>
   </properties>
  </tile>
  <tile id="114" type="tile_NO_SOLID">
   <properties>
    <property name="property" type="int" propertytype="tileProperties" value="1"/>
   </properties>
  </tile>
  <tile id="115" type="tile_NO_SOLID">
   <properties>
    <property name="property" type="int" propertytype="tileProperties" value="1"/>
   </properties>
  </tile>
  <tile id="120" type="tile_NO_SOLID">
   <properties>
    <property name="property" type="int" propertytype="tileProperties" value="1"/>
   </properties>
  </tile>
  <tile id="121" type="tile_NO_SOLID">
   <properties>
    <property name="property" type="int" propertytype="tileProperties" value="1"/>
   </properties>
  </tile>
  <tile id="122" type="tile_NO_SOLID">
   <properties>
    <property name="property" type="int" propertytype="tileProperties" value="1"/>
   </properties>
  </tile>
  <tile id="123" type="tile_NO_SOLID">
   <properties>
    <property name="property" type="int" propertytype="tileProperties" value="1"/>
   </properties>
  </tile>
  <tile id="128" type="tile_NO_SOLID">
   <properties>
    <property name="property" type="int" propertytype="tileProperties" value="1"/>
   </properties>
  </tile>
  <tile id="129" type="tile_NO_SOLID">
   <properties>
    <property name="property" type="int" propertytype="tileProperties" value="1"/>
   </properties>
  </tile>
  <tile id="130" type="tile_NO_SOLID">
   <properties>
    <property name="property" type="int" propertytype="tileProperties" value="1"/>
   </properties>
  </tile>
  <tile id="131" type="tile_NO_SOLID">
   <properties>
    <property name="property" type="int" propertytype="tileProperties" value="1"/>
   </properties>
  </tile>
  <tile id="132" type="tile_NO_SOLID">
   <properties>
    <property name="property" type="int" propertytype="tileProperties" value="1"/>
   </properties>
  </tile>
  <tile id="133" type="tile_NO_SOLID">
   <properties>
    <property name="property" type="int" propertytype="tileProperties" value="1"/>
   </properties>
   <animation>
    <frame tileid="133" duration="2000"/>
    <frame tileid="154" duration="600"/>
   </animation>
  </tile>
  <tile id="134" type="tile_NO_SOLID">
   <properties>
    <property name="property" type="int" propertytype="tileProperties" value="1"/>
   </properties>
   <animation>
    <frame tileid="134" duration="600"/>
    <frame tileid="137" duration="250"/>
    <frame tileid="147" duration="250"/>
   </animation>
  </tile>
  <tile id="135" type="tile_NO_SOLID">
   <properties>
    <property name="property" type="int" propertytype="tileProperties" value="1"/>
   </properties>
  </tile>
  <tile id="136" type="tile_NO_SOLID">
   <properties>
    <property name="property" type="int" propertytype="tileProperties" value="1"/>
   </properties>
  </tile>
  <tile id="138" type="tile_NO_SOLID">
   <properties>
    <property name="property" type="int" propertytype="tileProperties" value="1"/>
   </properties>
  </tile>
  <tile id="139" type="tile_NO_SOLID">
   <properties>
    <property name="property" type="int" propertytype="tileProperties" value="1"/>
   </properties>
  </tile>
  <tile id="140" type="tile_NO_SOLID">
   <properties>
    <property name="property" type="int" propertytype="tileProperties" value="1"/>
   </properties>
  </tile>
  <tile id="141" type="tile_NO_SOLID">
   <properties>
    <property name="property" type="int" propertytype="tileProperties" value="1"/>
   </properties>
  </tile>
  <tile id="142" type="tile_NO_SOLID">
   <properties>
    <property name="property" type="int" propertytype="tileProperties" value="1"/>
   </properties>
  </tile>
  <tile id="143" type="tile_NO_SOLID">
   <properties>
    <property name="property" type="int" propertytype="tileProperties" value="1"/>
   </properties>
  </tile>
  <tile id="144" type="tile_NO_SOLID">
   <properties>
    <property name="property" type="int" propertytype="tileProperties" value="1"/>
   </properties>
  </tile>
  <tile id="145" type="tile_NO_SOLID">
   <properties>
    <property name="property" type="int" propertytype="tileProperties" value="1"/>
   </properties>
  </tile>
  <tile id="146" type="tile_NO_SOLID">
   <properties>
    <property name="property" type="int" propertytype="tileProperties" value="1"/>
   </properties>
  </tile>
  <tile id="148" type="tile_NO_SOLID">
   <properties>
    <property name="property" type="int" propertytype="tileProperties" value="1"/>
   </properties>
  </tile>
  <tile id="149" type="tile_NO_SOLID">
   <properties>
    <property name="property" type="int" propertytype="tileProperties" value="1"/>
   </properties>
  </tile>
  <tile id="150" type="tile_NO_SOLID">
   <properties>
    <property name="property" type="int" propertytype="tileProperties" value="1"/>
   </properties>
  </tile>
  <tile id="151" type="tile_NO_SOLID">
   <properties>
    <property name="property" type="int" propertytype="tileProperties" value="1"/>
   </properties>
  </tile>
  <tile id="152" type="tile_NO_SOLID">
   <properties>
    <property name="property" type="int" propertytype="tileProperties" value="1"/>
   </properties>
  </tile>
  <tile id="153" type="tile_NO_SOLID">
   <properties>
    <property name="property" type="int" propertytype="tileProperties" value="1"/>
   </properties>
  </tile>
  <tile id="155" type="tile_NO_SOLID">
   <properties>
    <property name="property" type="int" propertytype="tileProperties" value="1"/>
   </properties>
   <animation>
    <frame tileid="155" duration="250"/>
    <frame tileid="156" duration="250"/>
    <frame tileid="157" duration="250"/>
    <frame tileid="158" duration="250"/>
   </animation>
  </tile>
  <tile id="156" type="tile_NO_SOLID">
   <properties>
    <property name="property" type="int" propertytype="tileProperties" value="1"/>
   </properties>
  </tile>
  <tile id="157" type="tile_NO_SOLID">
   <properties>
    <property name="property" type="int" propertytype="tileProperties" value="1"/>
   </properties>
  </tile>
  <tile id="158" type="tile_NO_SOLID">
   <properties>
    <property name="property" type="int" propertytype="tileProperties" value="1"/>
   </properties>
  </tile>
  <tile id="159" type="tile_NO_SOLID">
   <properties>
    <property name="property" type="int" propertytype="tileProperties" value="1"/>
   </properties>
  </tile>
  <tile id="165" type="tile_NO_SOLID">
   <properties>
    <property name="property" type="int" propertytype="tileProperties" value="1"/>
   </properties>
  </tile>
  <tile id="166" type="tile_NO_SOLID">
   <properties>
    <property name="property" type="int" propertytype="tileProperties" value="1"/>
   </properties>
  </tile>
  <tile id="167" type="tile_NO_SOLID">
   <properties>
    <property name="property" type="int" propertytype="tileProperties" value="1"/>
   </properties>
  </tile>
  <tile id="168" type="tile_NO_SOLID">
   <properties>
    <property name="property" type="int" propertytype="tileProperties" value="1"/>
   </properties>
  </tile>
  <tile id="169" type="tile_NO_SOLID">
   <properties>
    <property name="property" type="int" propertytype="tileProperties" value="1"/>
   </properties>
  </tile>
 </tileset>
 <layer id="1" name="tiles" width="160" height="10">
  <properties>
   <property name="backColor" type="int" value="99"/>
  </properties>
  <data encoding="csv">
133,133,132,132,132,132,132,134,132,132,132,132,132,135,132,132,133,132,132,132,132,132,134,132,136,137,132,132,132,132,132,132,133,132,132,132,132,132,132,134,132,132,132,132,132,135,132,134,132,132,132,132,132,135,132,132,34,11,12,13,12,12,11,12,13,12,6,7,12,6,12,18,107,132,107,132,107,132,107,34,107,132,107,132,107,132,107,132,107,132,107,132,107,132,107,132,107,132,107,132,107,132,107,132,107,132,107,132,107,132,107,132,58,59,58,59,58,59,58,59,58,59,58,59,58,59,58,59,0,0,0,0,0,0,0,0,0,0,0,0,0,0,0,0,0,0,0,0,0,0,0,0,0,0,0,0,0,0,0,0,
132,132,132,132,132,132,132,132,132,132,132,132,132,132,132,132,132,132,132,132,132,132,132,132,146,147,132,107,132,107,132,107,107,132,107,132,107,132,107,132,107,132,107,132,107,132,107,132,107,132,107,132,107,132,107,132,35,11,12,13,12,12,11,6,7,8,12,6,7,12,7,19,45,45,45,45,45,45,45,30,45,45,45,45,45,45,45,45,45,45,45,45,45,45,46,46,46,46,46,46,46,46,46,46,46,46,46,46,46,47,46,47,68,69,68,69,68,69,68,69,68,69,68,69,68,69,68,69,0,0,0,0,0,0,0,0,0,0,0,0,0,0,0,0,0,0,0,0,0,0,0,0,0,0,0,0,0,0,0,0,
132,132,133,132,132,132,132,132,132,132,132,134,132,132,132,132,132,133,132,132,132,132,132,132,132,132,132,18,12,11,12,13,45,45,45,45,45,45,45,45,45,45,45,45,45,45,45,45,45,45,45,45,45,45,45,45,31,32,33,28,29,37,38,48,32,49,29,37,38,39,32,19,42,52,42,52,42,52,42,40,41,42,41,42,41,42,41,42,41,42,41,42,41,42,41,42,41,42,41,51,51,51,41,42,42,41,41,42,42,42,41,42,58,59,58,59,58,59,58,59,58,59,58,59,58,59,58,59,0,0,0,0,0,0,0,0,0,0,0,0,0,0,0,0,0,0,0,0,0,0,0,0,0,0,0,0,0,0,0,0,
132,132,132,132,135,132,132,132,132,132,132,132,132,132,132,134,132,132,132,135,132,132,132,132,132,132,132,18,81,82,83,84,42,41,41,42,41,42,41,42,41,42,41,42,41,42,41,42,41,42,41,42,41,42,41,42,41,42,41,41,42,30,41,42,41,41,42,30,41,42,42,42,42,42,42,42,42,42,42,40,51,52,51,52,51,43,51,52,51,44,51,79,80,52,51,52,41,42,42,51,52,41,42,41,74,61,62,61,62,42,41,42,68,69,68,69,72,72,60,72,72,72,72,73,68,69,68,69,0,0,0,0,0,0,0,0,0,0,0,0,0,0,0,0,0,0,0,0,0,0,0,0,0,0,0,0,0,0,0,0,
132,132,75,76,135,132,131,132,132,131,132,131,131,75,76,134,132,132,132,132,135,132,131,132,132,132,132,19,91,92,93,94,42,41,41,77,78,42,41,41,41,42,41,79,80,42,41,42,41,42,41,42,41,42,24,25,51,52,51,41,42,40,51,52,156,51,52,40,51,52,42,52,42,52,156,52,42,52,42,40,41,42,41,42,41,53,41,42,41,54,41,89,90,42,41,42,41,42,42,156,52,41,42,51,51,51,41,51,41,42,41,42,58,59,58,59,58,59,70,69,68,69,69,68,58,59,58,59,0,0,0,0,0,0,0,0,0,0,0,0,0,0,0,0,0,0,0,0,0,0,0,0,0,0,0,0,0,0,0,0,
142,143,85,86,141,115,116,142,143,141,142,141,141,85,86,144,142,143,143,144,141,142,141,142,143,143,143,143,101,102,103,104,42,41,51,87,88,52,41,41,51,52,51,89,90,42,41,42,41,42,24,25,41,42,41,42,41,42,42,51,52,40,41,42,166,51,52,40,41,42,42,42,42,42,166,42,42,42,42,40,51,52,51,52,51,63,51,52,51,64,51,99,100,52,51,67,67,42,41,166,52,51,52,51,52,41,51,51,129,130,41,42,68,69,68,69,68,69,70,59,58,59,59,58,68,69,68,69,0,0,0,0,0,0,0,0,0,0,0,0,0,0,0,0,0,0,0,0,0,0,0,0,0,0,0,0,0,0,0,0,
145,145,95,96,145,95,96,145,145,145,145,145,145,95,96,145,145,145,145,145,145,145,145,145,145,145,145,145,111,112,113,114,42,41,41,97,98,42,41,41,41,42,41,99,100,42,41,42,41,42,41,42,41,42,41,42,41,42,41,41,42,40,41,42,41,41,42,40,41,42,42,52,42,52,42,52,42,52,42,40,41,2,3,4,74,61,62,61,62,42,41,42,41,42,55,56,67,41,51,41,42,2,3,4,5,51,52,42,139,140,41,42,58,59,58,59,58,59,70,59,58,59,58,59,58,59,58,59,0,0,0,0,0,0,0,0,0,0,0,0,0,0,0,0,0,0,0,0,0,0,0,0,0,0,0,0,0,0,0,0,
152,152,105,106,152,105,106,151,152,153,151,152,151,105,106,153,152,151,151,152,153,153,151,152,151,152,152,152,121,122,123,124,42,41,51,52,51,52,51,52,51,52,51,52,51,52,51,52,41,42,41,42,41,42,41,42,41,42,41,51,52,50,51,52,51,51,52,50,51,52,52,42,42,42,42,42,42,42,42,50,51,7,8,9,51,52,51,52,51,52,51,52,51,55,65,66,67,67,51,51,52,7,8,9,12,51,52,52,149,150,51,52,68,69,68,69,68,69,70,69,68,69,68,69,68,69,68,69,0,0,0,0,0,0,0,0,0,0,0,0,0,0,0,0,0,0,0,0,0,0,0,0,0,0,0,0,0,0,0,0,
171,172,173,174,171,172,173,172,172,173,171,172,171,175,177,174,171,172,173,174,171,172,173,171,172,173,174,171,171,172,173,174,5,2,3,4,5,1,2,3,4,1,1,2,3,4,3,4,5,1,2,3,4,5,2,3,4,1,2,1,2,3,4,1,2,3,4,5,2,22,22,3,4,5,2,3,4,1,2,3,4,5,2,1,2,3,4,5,1,2,3,4,5,2,3,4,4,5,1,2,3,4,5,2,3,4,4,5,1,2,3,4,5,2,3,4,4,5,1,2,3,4,5,2,3,2,3,4,0,0,0,0,0,0,0,0,0,0,0,0,0,0,0,0,0,0,0,0,0,0,0,0,0,0,0,0,0,0,0,0,
182,183,184,182,182,183,184,182,182,183,182,183,182,183,184,182,182,183,184,182,182,183,184,182,183,184,182,182,182,183,184,182,19,7,8,9,12,27,14,15,16,17,16,17,12,13,13,6,7,6,7,8,9,12,13,14,15,27,17,23,17,26,13,6,7,8,9,12,13,6,7,8,9,12,13,14,15,6,7,8,9,12,13,6,7,8,9,12,6,7,8,9,12,13,14,15,9,12,6,7,8,9,12,13,14,15,9,12,6,7,8,9,12,13,14,15,9,12,6,7,8,9,12,13,14,13,14,15,0,0,0,0,0,0,0,0,0,0,0,0,0,0,0,0,0,0,0,0,0,0,0,0,0,0,0,0,0,0,0,0
</data>
 </layer>
 <objectgroup id="2" name="entities">
  <object id="1" name="player1" type="player" x="928" y="96" width="16" height="32">
   <properties>
    <property name="dir" type="int" propertytype="dir" value="0"/>
   </properties>
  </object>
  <object id="2" name="ghost" type="enemy" x="624" y="80" width="32" height="32">
   <properties>
    <property name="dir" type="int" propertytype="dir" value="0"/>
   </properties>
  </object>
  <object id="3" name="stopScroll" type="trigger" x="512" y="80" width="16" height="16">
   <properties>
    <property name="spare" type="int" propertytype="stopScroll" value="3"/>
   </properties>
  </object>
  <object id="4" name="door-in" type="trigger" x="480" y="96" width="16" height="32">
   <properties>
    <property name="spare" type="int" value="1"/>
   </properties>
  </object>
  <object id="5" name="door-out" type="trigger" x="544" y="96" width="16" height="32">
   <properties>
    <property name="dir" type="int" propertytype="dir" value="1"/>
    <property name="spare" type="int" value="1"/>
   </properties>
  </object>
  <object id="6" name="knight" type="enemy" x="1008" y="96" width="20" height="32">
   <properties>
    <property name="dir" type="int" propertytype="dir" value="0"/>
    <property name="spare" type="int" propertytype="egyptianSpare" value="1"/>
   </properties>
  </object>
 </objectgroup>
</map>
