<?xml version="1.0" encoding="UTF-8"?>
<map version="1.10" tiledversion="1.12.1" orientation="orthogonal" renderorder="right-down" width="16" height="10" tilewidth="16" tileheight="16" infinite="0" nextlayerid="3" nextobjectid="8">
 <properties>
  <property name="time" type="int" value="0"/>
 </properties>
 <tileset firstgid="1" name="tutorial" tilewidth="16" tileheight="16" tilecount="30" columns="6">
  <image source="../../dev/gfx/maps/tutorial/tsheet.bmp" width="96" height="80"/>
  <tile id="6" type="tile_NO_SOLID">
   <properties>
    <property name="property" type="int" propertytype="tileProperties" value="1"/>
   </properties>
  </tile>
 </tileset>
 <layer id="1" name="tiles" width="16" height="10">
  <properties>
   <property name="backColor" type="int" value="149"/>
  </properties>
  <data encoding="csv">
22,22,22,22,22,22,22,22,22,22,22,22,22,22,22,22,
22,7,7,7,7,7,7,7,7,7,7,7,7,7,7,22,
22,7,7,7,7,7,7,7,7,7,7,7,7,7,7,22,
22,7,7,7,7,7,7,7,7,7,7,7,7,7,7,22,
22,7,7,7,7,7,7,7,7,7,7,7,7,7,7,22,
22,7,7,7,7,7,7,7,7,7,7,7,7,7,7,22,
22,7,7,7,7,7,7,7,7,7,7,7,0,0,7,22,
22,7,7,7,7,7,7,7,7,7,7,7,0,0,7,22,
22,7,7,7,7,7,7,7,7,7,7,7,0,0,7,22,
22,22,22,22,22,22,22,22,22,22,22,22,22,22,22,22
</data>
 </layer>
 <objectgroup id="2" name="entities">
  <object id="1" name="player1" type="player" x="32" y="112" width="16" height="32">
   <properties>
    <property name="dir" type="int" propertytype="dir" value="1"/>
   </properties>
  </object>
  <object id="7" name="solid" type="object" x="128" y="128" width="16" height="16">
   <properties>
    <property name="spare" type="int" propertytype="levels" value="4"/>
   </properties>
  </object>
 </objectgroup>
</map>
