<?xml version="1.0" encoding="UTF-8"?>
<map version="1.10" tiledversion="1.12.1" orientation="orthogonal" renderorder="right-down" width="320" height="20" tilewidth="16" tileheight="16" infinite="0" backgroundcolor="#badedd" nextlayerid="5" nextobjectid="86">
 <properties>
  <property name="time" type="int" value="200"/>
 </properties>
 <tileset firstgid="1" name="west" tilewidth="16" tileheight="16" tilecount="200" columns="10">
  <image source="../../dev/gfx/maps/wild-west/wildWest-tileset.aseprite" width="160" height="320"/>
  <tile id="15">
   <properties>
    <property name="property" type="int" propertytype="tileProperties" value="128"/>
   </properties>
  </tile>
  <tile id="16">
   <properties>
    <property name="property" type="int" propertytype="tileProperties" value="256"/>
   </properties>
  </tile>
  <tile id="43">
   <properties>
    <property name="property" type="int" propertytype="tileProperties" value="1"/>
   </properties>
  </tile>
  <tile id="44">
   <properties>
    <property name="property" type="int" propertytype="tileProperties" value="1"/>
   </properties>
  </tile>
  <tile id="45">
   <properties>
    <property name="property" type="int" propertytype="tileProperties" value="1"/>
   </properties>
  </tile>
  <tile id="46">
   <properties>
    <property name="property" type="int" propertytype="tileProperties" value="1"/>
   </properties>
  </tile>
  <tile id="47">
   <properties>
    <property name="property" type="int" propertytype="tileProperties" value="1"/>
   </properties>
  </tile>
  <tile id="48">
   <properties>
    <property name="property" type="int" propertytype="tileProperties" value="1"/>
   </properties>
  </tile>
  <tile id="49">
   <properties>
    <property name="property" type="int" propertytype="tileProperties" value="1"/>
   </properties>
  </tile>
  <tile id="52">
   <properties>
    <property name="property" type="int" propertytype="tileProperties" value="1"/>
   </properties>
  </tile>
  <tile id="53">
   <properties>
    <property name="property" type="int" propertytype="tileProperties" value="1"/>
   </properties>
  </tile>
  <tile id="54">
   <properties>
    <property name="property" type="int" propertytype="tileProperties" value="1"/>
   </properties>
  </tile>
  <tile id="55">
   <properties>
    <property name="property" type="int" propertytype="tileProperties" value="1"/>
   </properties>
  </tile>
  <tile id="56" type="Tile_NO_SOLID">
   <properties>
    <property name="property" type="int" propertytype="tileProperties" value="1"/>
   </properties>
  </tile>
  <tile id="65">
   <properties>
    <property name="property" type="int" propertytype="tileProperties" value="4096"/>
   </properties>
  </tile>
  <tile id="66">
   <properties>
    <property name="property" type="int" propertytype="tileProperties" value="64"/>
   </properties>
  </tile>
  <tile id="67">
   <properties>
    <property name="property" type="int" propertytype="tileProperties" value="1"/>
   </properties>
  </tile>
  <tile id="71">
   <properties>
    <property name="property" type="int" propertytype="tileProperties" value="2048"/>
   </properties>
  </tile>
  <tile id="72">
   <properties>
    <property name="property" type="int" propertytype="tileProperties" value="1"/>
   </properties>
  </tile>
  <tile id="77">
   <properties>
    <property name="property" type="int" propertytype="tileProperties" value="4096"/>
   </properties>
  </tile>
  <tile id="78">
   <properties>
    <property name="property" type="int" propertytype="tileProperties" value="2048"/>
   </properties>
  </tile>
  <tile id="79">
   <properties>
    <property name="property" type="int" propertytype="tileProperties" value="32"/>
   </properties>
  </tile>
  <tile id="86" type="tile_SOLID_ON_FALL"/>
  <tile id="87" type="tile_NO_SOLID"/>
  <tile id="88" type="tile_SOLID_ON_FALL"/>
  <tile id="89">
   <properties>
    <property name="property" type="int" propertytype="tileProperties" value="1"/>
   </properties>
  </tile>
  <tile id="90">
   <properties>
    <property name="property" type="int" propertytype="tileProperties" value="1"/>
   </properties>
  </tile>
  <tile id="91">
   <properties>
    <property name="property" type="int" propertytype="tileProperties" value="1"/>
   </properties>
  </tile>
  <tile id="92">
   <properties>
    <property name="property" type="int" propertytype="tileProperties" value="1"/>
   </properties>
  </tile>
  <tile id="93">
   <properties>
    <property name="property" type="int" propertytype="tileProperties" value="1"/>
   </properties>
  </tile>
  <tile id="94">
   <properties>
    <property name="property" type="int" propertytype="tileProperties" value="1"/>
   </properties>
  </tile>
  <tile id="95">
   <properties>
    <property name="property" type="int" propertytype="tileProperties" value="1"/>
   </properties>
  </tile>
  <tile id="96">
   <properties>
    <property name="property" type="int" propertytype="tileProperties" value="1"/>
   </properties>
  </tile>
  <tile id="97">
   <properties>
    <property name="property" type="int" propertytype="tileProperties" value="1"/>
   </properties>
  </tile>
  <tile id="98">
   <properties>
    <property name="property" type="int" propertytype="tileProperties" value="1"/>
   </properties>
  </tile>
  <tile id="99">
   <properties>
    <property name="property" type="int" propertytype="tileProperties" value="3"/>
   </properties>
  </tile>
  <tile id="100">
   <properties>
    <property name="property" type="int" propertytype="tileProperties" value="1"/>
   </properties>
  </tile>
  <tile id="101">
   <properties>
    <property name="property" type="int" propertytype="tileProperties" value="3"/>
   </properties>
  </tile>
  <tile id="102">
   <properties>
    <property name="property" type="int" propertytype="tileProperties" value="3"/>
   </properties>
  </tile>
  <tile id="103">
   <properties>
    <property name="property" type="int" propertytype="tileProperties" value="3"/>
   </properties>
  </tile>
  <tile id="104">
   <properties>
    <property name="property" type="int" propertytype="tileProperties" value="1024"/>
   </properties>
  </tile>
  <tile id="105">
   <properties>
    <property name="property" type="int" propertytype="tileProperties" value="3"/>
   </properties>
  </tile>
  <tile id="106">
   <properties>
    <property name="property" type="int" propertytype="tileProperties" value="1"/>
   </properties>
  </tile>
  <tile id="107">
   <properties>
    <property name="property" type="int" propertytype="tileProperties" value="1"/>
   </properties>
  </tile>
  <tile id="110" type="tile_NO_SOLID"/>
  <tile id="111" type="tile_NO_SOLID"/>
  <tile id="112" type="tile_SLOPE_135"/>
  <tile id="119" type="tile_SLOPE_45"/>
  <tile id="120">
   <properties>
    <property name="property" type="int" propertytype="tileProperties" value="1"/>
   </properties>
  </tile>
  <tile id="121" type="tile_FRONT">
   <properties>
    <property name="property" type="int" propertytype="tileProperties" value="3"/>
   </properties>
  </tile>
  <tile id="122" type="tile_FRONT">
   <properties>
    <property name="property" type="int" propertytype="tileProperties" value="3"/>
   </properties>
  </tile>
  <tile id="123" type="tile_FRONT">
   <properties>
    <property name="property" type="int" propertytype="tileProperties" value="514"/>
   </properties>
  </tile>
  <tile id="124" type="tile_FRONT">
   <properties>
    <property name="property" type="int" propertytype="tileProperties" value="514"/>
   </properties>
  </tile>
  <tile id="125">
   <properties>
    <property name="property" type="int" propertytype="tileProperties" value="8"/>
   </properties>
  </tile>
 </tileset>
 <layer id="1" name="tiles" width="320" height="20">
  <properties>
   <property name="backColor" type="int" value="242"/>
  </properties>
  <data encoding="csv">
0,0,0,0,0,0,0,0,0,0,0,0,0,0,0,0,0,0,0,0,0,0,0,0,0,0,0,0,0,0,0,0,0,0,0,0,0,0,0,0,0,0,0,0,0,0,0,0,0,0,0,0,0,0,0,0,0,0,0,0,0,0,0,0,0,0,0,0,0,0,0,0,0,0,0,0,0,0,0,0,0,0,0,0,0,0,0,0,0,0,0,0,0,0,0,0,0,0,0,0,0,0,0,0,0,0,0,0,0,0,0,0,0,0,0,0,0,0,0,0,0,0,0,0,0,0,0,0,0,0,0,0,0,0,0,0,0,0,0,0,0,0,0,0,0,0,0,0,0,0,0,0,0,0,0,0,0,0,0,0,0,0,0,0,0,0,0,0,0,0,0,0,0,0,0,0,0,0,0,0,0,0,0,0,0,0,0,0,0,0,0,0,0,0,0,0,0,0,0,0,0,0,0,0,0,0,0,0,0,0,0,0,0,0,0,0,0,0,0,0,0,0,0,0,0,0,0,0,0,0,0,0,0,0,0,0,0,0,0,0,0,0,0,0,0,0,0,0,0,0,0,0,0,0,0,0,0,0,0,0,0,0,0,0,0,0,0,0,0,0,0,0,0,0,0,0,0,0,0,0,0,0,0,0,0,0,0,0,0,0,0,0,0,0,0,0,0,0,0,0,0,0,0,0,0,0,0,0,0,0,0,0,0,0,0,0,0,0,0,0,
0,0,0,0,0,0,0,0,0,0,0,0,0,0,0,0,0,0,0,0,0,0,0,0,0,0,0,0,90,0,0,0,0,0,0,0,0,0,0,0,0,0,0,0,0,0,0,0,0,0,0,0,0,0,0,0,0,0,0,0,0,0,0,0,0,0,0,0,0,0,0,0,0,0,0,0,0,0,0,0,0,0,0,0,0,0,0,0,0,0,0,0,0,0,0,0,0,0,0,0,0,0,0,0,0,0,0,0,0,0,0,0,0,0,0,0,0,0,0,0,0,0,0,0,0,0,0,0,0,0,0,0,0,0,0,0,0,0,0,0,0,0,0,0,0,0,0,0,0,0,0,0,0,0,0,0,0,0,0,0,0,0,0,0,0,0,0,0,0,0,0,0,0,0,0,0,0,0,0,0,0,0,0,0,0,0,0,0,0,0,0,0,0,0,0,0,0,0,0,0,0,0,0,0,0,0,0,0,0,0,0,0,0,0,0,0,0,0,0,0,0,0,0,0,0,0,0,0,0,0,0,0,0,0,0,0,0,0,0,0,0,0,0,0,0,0,0,0,0,0,0,0,0,0,0,0,0,0,0,0,0,0,0,0,0,0,0,0,0,0,0,0,0,0,0,0,0,0,0,0,0,0,0,0,0,0,0,0,0,0,0,0,0,0,0,0,0,0,0,0,0,0,0,0,0,0,0,0,0,0,0,0,0,0,0,0,0,0,0,0,
0,0,0,0,0,0,0,0,0,0,0,0,0,0,0,0,0,0,0,0,0,0,0,0,0,0,0,87,88,89,0,0,0,0,0,0,0,0,0,0,0,0,0,0,0,0,0,0,0,0,0,0,0,0,0,0,0,0,0,0,0,0,0,0,0,0,0,0,0,0,0,0,0,0,0,0,0,0,0,0,0,0,0,0,21,20,23,0,0,0,0,0,0,0,0,0,0,0,0,0,0,0,0,0,0,0,0,0,0,0,0,0,0,0,0,0,0,0,0,0,0,0,0,0,0,0,0,0,0,0,0,0,0,0,0,0,0,0,0,0,0,0,0,0,0,0,0,0,0,0,0,0,0,0,0,0,0,0,0,0,0,0,0,0,0,0,0,0,0,0,0,0,0,0,0,0,0,0,0,0,0,0,0,0,0,0,0,0,0,0,0,0,0,0,0,0,0,0,0,0,0,0,0,0,0,0,0,0,0,0,0,0,0,0,0,0,0,0,0,0,0,0,0,0,0,0,0,0,0,0,0,0,0,0,0,90,0,0,0,0,90,0,0,0,0,0,0,0,0,90,0,0,0,0,0,0,0,0,0,0,0,0,0,0,0,0,0,0,0,0,0,0,0,0,0,0,0,0,0,0,0,0,0,0,0,0,0,0,0,0,0,0,0,0,0,0,0,0,0,0,0,0,0,0,0,0,0,0,0,0,0,0,0,0,0,0,0,0,0,0,
0,0,0,0,0,0,0,0,0,0,0,0,0,0,0,0,0,0,0,0,0,0,0,0,90,0,0,0,98,0,0,0,0,0,0,0,0,0,0,0,0,0,0,0,0,0,0,0,0,0,0,0,0,0,0,0,0,0,0,0,0,0,0,0,0,0,0,0,0,0,0,0,0,0,0,0,0,0,0,0,0,0,0,0,0,0,0,0,0,0,0,0,0,0,0,0,0,0,0,0,0,0,0,0,0,0,0,0,0,0,0,0,0,0,0,0,0,0,0,0,0,0,0,0,0,0,0,0,0,0,0,0,0,0,0,0,0,0,0,0,0,0,0,0,0,0,0,0,0,0,0,0,0,0,0,0,0,0,0,0,0,0,0,0,0,0,0,0,0,0,0,0,0,0,0,0,0,0,0,0,0,0,0,0,0,0,0,0,0,0,0,0,0,0,0,0,0,0,0,0,0,0,0,0,0,0,0,0,0,0,0,0,0,0,0,0,0,0,0,0,0,0,0,0,0,0,0,0,0,0,0,0,0,0,87,88,89,0,0,87,88,89,0,0,0,0,0,0,87,88,89,0,0,0,0,0,0,0,0,0,0,0,0,0,0,0,0,0,0,0,0,0,0,0,0,0,0,0,0,0,0,0,0,0,0,0,0,0,0,0,0,0,0,0,0,0,0,0,0,0,0,0,0,0,0,0,0,0,0,0,0,0,83,83,83,83,83,0,0,0,
0,0,0,0,0,0,0,0,0,0,0,0,0,0,0,0,0,0,0,0,0,0,0,87,88,89,0,0,99,0,0,0,0,0,0,0,0,0,0,0,0,0,0,0,0,0,0,0,0,0,0,0,0,0,0,0,0,0,0,0,0,0,0,0,0,0,0,0,0,0,0,0,0,0,0,0,0,81,85,81,81,0,0,0,0,0,0,0,0,0,0,0,0,0,0,0,0,0,0,0,0,0,0,0,0,0,0,0,0,0,0,0,0,0,0,0,0,0,0,0,0,0,0,0,0,0,0,0,0,0,0,0,0,0,0,0,0,0,0,0,0,0,0,0,0,0,0,0,0,0,0,0,0,0,0,0,0,0,0,0,0,0,0,0,0,0,0,0,0,0,0,0,0,0,0,0,0,0,0,0,0,0,0,0,0,0,0,0,0,0,0,0,0,0,0,0,0,0,0,0,0,0,0,0,0,0,0,0,0,0,0,0,0,0,0,0,0,0,0,0,0,0,0,0,0,0,0,0,0,0,0,90,0,0,0,98,0,0,0,0,98,0,0,0,0,90,0,0,0,98,0,0,0,0,0,0,0,0,0,0,0,0,0,0,0,0,0,0,0,0,0,0,0,0,0,0,0,0,0,0,0,0,0,0,0,0,0,0,0,0,0,0,0,0,0,0,0,0,0,0,0,0,0,0,0,0,0,0,0,0,0,83,86,86,86,83,83,83,0,0,
0,0,0,0,0,0,0,0,91,0,0,0,0,0,0,0,0,0,0,0,90,0,0,0,98,0,0,0,97,0,0,0,0,0,0,0,0,0,0,0,0,0,0,0,0,0,0,0,0,0,0,0,0,0,0,0,0,0,0,0,0,0,0,0,0,0,0,0,0,0,0,0,0,0,0,0,86,83,83,82,83,82,0,0,0,0,0,0,0,0,0,0,0,0,0,0,0,0,0,0,0,0,0,0,0,0,0,0,0,0,0,0,0,0,0,0,0,0,0,0,0,0,0,0,0,0,0,0,0,0,0,0,0,0,0,0,21,22,23,0,0,0,0,0,21,20,23,0,0,0,0,0,0,0,0,0,0,0,0,0,0,0,0,0,0,0,0,0,0,0,0,0,0,0,0,0,0,0,0,0,0,0,0,0,0,0,0,0,0,0,0,0,0,0,0,0,0,0,0,0,0,0,0,0,0,0,0,0,0,0,0,0,0,0,0,0,0,0,0,0,0,0,0,0,0,0,0,0,0,0,87,88,89,0,0,99,0,0,0,0,99,0,0,0,87,88,89,0,0,99,0,0,0,0,0,0,0,0,0,0,0,0,0,0,0,0,0,0,0,0,0,0,0,0,0,0,0,0,0,0,0,0,0,0,0,0,0,0,0,0,0,0,0,0,0,0,0,0,0,0,0,0,0,0,0,0,0,0,0,0,83,86,82,82,82,85,85,86,83,0,
0,0,0,0,0,0,0,0,92,93,107,0,0,0,0,0,0,0,0,87,88,89,0,0,99,0,0,0,99,0,0,0,0,0,0,0,0,0,0,0,0,0,0,9,1,2,3,113,0,0,0,0,0,0,0,0,0,0,0,0,0,0,0,0,0,0,0,0,0,0,0,0,0,0,0,86,83,85,81,85,83,86,0,0,0,0,0,0,0,0,0,0,0,0,0,0,0,0,0,0,0,0,0,0,0,0,0,0,0,0,0,0,0,0,0,0,0,0,0,0,0,0,0,0,0,0,0,0,0,0,0,0,0,0,0,0,0,0,0,0,0,0,0,0,0,0,0,0,0,0,0,0,0,0,0,0,0,0,0,0,0,0,0,0,0,0,0,0,0,0,0,0,0,0,0,0,0,0,0,0,0,0,0,0,0,0,0,0,0,0,0,0,0,0,0,0,0,0,0,0,0,0,0,0,0,0,0,0,0,0,0,0,0,0,0,0,0,0,0,0,0,0,0,0,0,0,0,90,0,0,0,98,0,0,0,97,0,0,0,0,97,0,0,0,0,98,0,0,0,97,0,0,0,0,90,0,0,0,0,0,0,0,0,0,0,0,0,0,0,0,0,0,0,0,0,0,0,0,0,0,0,0,0,0,0,0,0,0,0,0,0,0,0,0,0,0,0,0,0,0,0,0,0,0,0,0,0,0,0,0,83,86,82,49,46,58,60,62,86,81,
0,0,0,106,0,0,0,0,94,95,108,0,0,0,0,0,0,0,0,0,98,0,0,0,97,0,96,100,98,0,0,103,104,0,101,0,0,0,0,0,0,0,0,8,44,44,44,114,113,0,0,0,0,0,0,0,0,0,0,0,0,0,0,0,0,0,0,0,0,0,0,0,0,0,86,81,9,1,2,3,18,85,0,0,0,0,0,0,0,0,0,0,0,0,0,0,0,0,0,0,0,0,0,0,0,0,0,0,0,0,0,0,0,0,0,0,0,0,0,0,0,0,0,0,0,0,0,0,0,9,1,2,3,113,0,0,0,0,0,0,0,0,0,0,0,0,0,0,0,0,0,0,0,0,0,0,0,0,0,0,0,0,0,0,0,0,0,0,0,0,0,0,0,0,0,0,0,0,0,0,0,0,0,0,120,1,2,3,1,1,1,1,1,1,1,1,2,3,1,1,1,1,2,3,1,1,1,1,1,1,2,3,1,1,1,2,1,1,1,1,1,2,3,18,0,0,87,88,89,0,0,99,0,0,0,99,0,0,0,0,99,0,0,0,0,99,0,0,0,99,0,0,0,87,88,89,0,0,122,123,0,0,0,0,0,0,0,0,0,0,0,0,0,0,0,0,0,0,0,0,0,0,0,0,0,0,0,0,0,0,0,0,0,0,0,0,0,0,0,0,0,0,0,0,0,0,122,123,0,0,49,47,47,46,49,111,57,112,86,83,
1,2,3,3,1,1,2,3,1,2,3,3,1,1,2,3,3,1,1,2,1,2,3,3,1,1,2,1,2,3,3,1,1,2,3,3,1,1,3,1,1,2,3,7,45,54,45,115,116,1,2,3,3,3,3,1,1,2,2,3,2,1,3,3,126,0,0,127,1,1,2,2,3,2,1,2,7,44,44,44,10,81,0,0,0,0,0,0,0,0,0,0,0,0,0,0,0,0,0,0,0,0,0,0,0,0,0,0,0,0,0,0,0,0,0,0,0,0,0,0,0,0,0,0,0,0,0,0,0,8,44,44,44,114,113,0,0,0,0,0,0,0,0,0,0,0,0,0,0,0,0,0,0,0,0,0,0,0,0,0,0,0,0,0,0,0,0,0,0,0,0,0,0,0,0,0,0,0,0,0,0,0,0,120,119,44,44,44,44,44,44,44,44,44,44,44,44,44,44,44,44,44,44,44,44,44,44,44,44,44,44,44,44,44,44,44,44,44,44,44,44,44,44,10,0,0,0,98,0,0,0,97,0,0,0,98,0,0,0,0,98,0,0,0,0,97,0,0,0,98,0,0,0,0,98,0,0,0,124,125,0,0,0,9,4,5,5,5,5,5,5,5,5,5,5,5,5,5,5,5,5,5,5,5,5,5,5,6,2,2,18,0,0,0,0,0,0,0,0,0,0,0,0,0,0,0,124,125,0,0,57,57,45,53,54,111,57,112,86,83,
11,11,12,12,12,11,11,12,11,11,12,12,12,11,11,12,12,12,11,11,11,11,12,12,12,12,11,11,11,12,12,12,11,11,12,12,12,11,12,12,11,11,12,118,57,57,57,115,115,11,12,12,12,12,12,12,11,11,11,12,11,11,12,12,30,0,0,128,12,11,11,11,12,11,11,13,118,45,54,45,19,3,1,3,2,3,3,1,1,2,3,2,3,3,1,1,2,2,3,3,1,1,2,2,3,3,2,3,3,1,1,1,2,2,3,3,1,1,2,1,126,0,0,0,127,1,2,1,3,7,45,54,45,115,116,1,2,2,3,3,1,1,2,2,1,1,1,1,1,1,1,1,1,1,105,105,2,2,2,3,3,105,105,105,2,1,1,1,1,1,1,1,1,1,1,1,1,1,1,1,1,1,1,117,118,45,54,45,45,45,45,45,45,45,45,45,54,45,45,45,45,45,54,45,45,45,45,45,45,45,54,45,45,45,45,54,45,45,45,45,45,54,45,19,1,2,2,3,3,1,3,3,1,105,3,1,3,105,105,3,1,3,2,2,3,3,1,105,105,2,3,3,3,3,3,1,1,2,2,3,3,1,1,7,12,12,12,12,12,12,12,12,12,12,12,12,12,12,12,12,12,12,12,12,12,12,12,12,12,12,19,4,5,5,5,5,5,5,5,5,5,5,5,5,6,4,5,5,5,5,5,5,5,5,5,15,16,3,4,5,
57,57,57,57,57,57,57,57,57,57,57,57,57,57,57,57,57,57,57,57,57,57,57,57,57,57,57,57,57,57,57,57,57,57,57,57,57,57,57,57,57,57,57,57,57,57,57,57,57,57,57,57,57,57,57,57,57,57,57,57,57,57,57,57,57,57,57,57,57,57,57,57,57,57,57,57,57,57,57,57,57,57,57,57,57,57,57,57,57,57,57,57,57,57,57,57,57,57,57,57,57,57,57,57,57,57,57,57,57,57,57,57,57,57,57,57,57,57,57,57,57,57,57,57,57,57,57,57,57,57,57,57,57,57,57,57,57,57,57,57,57,57,57,57,57,57,57,57,57,57,57,57,57,57,57,57,57,57,57,57,57,57,57,57,57,57,57,57,57,57,57,57,57,57,57,57,57,57,57,57,57,57,57,57,57,57,57,57,57,57,57,57,57,57,57,57,57,57,57,57,57,57,57,57,57,57,57,57,57,57,57,57,57,57,57,57,57,57,57,57,57,57,57,57,0,0,0,0,0,0,0,0,0,0,0,0,0,0,0,0,0,0,0,0,0,0,0,0,0,0,0,0,0,0,0,0,57,57,57,57,57,57,57,57,57,57,57,57,57,57,57,57,57,57,57,57,57,57,57,57,57,57,57,57,57,57,57,57,57,57,57,57,57,57,57,57,57,57,57,57,57,12,12,12,12,12,12,12,12,12,12,12,12,12,12,14,17,12,12,12,
57,57,57,57,57,57,57,57,57,57,57,57,57,57,57,57,57,57,57,57,57,57,57,57,57,57,57,57,57,57,57,57,57,57,57,57,57,57,57,57,57,57,57,57,57,57,57,57,57,57,57,57,57,57,57,57,57,57,57,57,57,57,57,57,57,57,57,57,57,57,57,57,57,57,57,57,57,57,57,57,57,57,57,57,57,57,57,57,57,57,57,57,57,57,57,57,57,57,57,57,57,57,57,57,57,57,57,57,57,57,57,57,57,57,57,57,57,57,57,57,57,57,57,57,57,57,57,57,57,57,57,57,57,57,57,57,57,57,57,57,57,57,57,57,57,57,57,57,57,57,57,57,57,57,57,57,57,57,57,57,57,57,57,57,57,57,57,57,57,57,57,57,57,57,57,57,57,57,57,57,57,57,57,57,57,57,57,57,57,57,57,57,57,57,57,57,57,57,57,57,57,57,57,57,57,57,57,57,57,57,57,57,57,57,57,57,57,57,57,57,57,57,57,57,0,0,0,0,0,0,0,0,0,0,0,0,0,0,0,0,0,0,0,0,0,0,0,0,0,0,0,0,0,0,0,0,57,57,57,57,57,57,57,57,57,57,57,57,57,57,57,57,57,57,57,57,57,57,57,57,57,57,57,57,57,57,57,57,57,57,57,57,57,57,57,57,57,57,57,57,57,57,57,57,57,57,57,46,46,46,47,46,47,46,46,42,17,40,47,47,
57,57,57,57,57,57,57,57,57,57,57,57,57,57,57,57,57,57,57,57,57,57,57,57,57,57,57,57,57,57,57,57,57,57,57,57,57,57,57,57,57,57,57,57,57,57,57,57,57,57,57,57,57,57,57,57,57,57,57,57,57,57,57,57,57,57,57,57,57,57,57,57,57,57,57,57,57,57,57,57,57,57,57,57,57,57,57,57,57,57,57,57,57,57,57,57,57,57,57,57,57,57,57,57,57,57,57,57,57,57,57,57,57,57,57,57,57,57,57,57,57,57,57,57,57,57,57,57,57,57,57,57,57,57,57,57,57,57,57,57,57,57,57,57,57,57,57,57,57,57,57,57,57,57,57,57,57,57,57,57,57,57,57,57,57,57,57,57,57,57,57,57,57,57,57,57,57,57,57,57,57,57,57,57,57,57,57,57,57,57,57,57,57,57,57,57,57,57,57,57,57,57,57,57,57,57,57,57,57,57,57,57,57,57,57,57,57,57,57,57,57,57,57,57,0,0,0,0,0,0,0,0,0,0,0,0,0,0,0,0,0,0,0,0,0,0,0,0,0,0,0,0,0,0,0,0,57,57,57,57,57,57,57,57,57,57,57,57,57,57,57,57,57,57,57,57,57,57,57,57,57,57,57,57,57,57,57,57,57,57,57,57,57,57,57,57,57,57,57,57,57,57,57,57,57,57,57,57,57,57,57,57,57,57,45,43,17,39,57,45,
57,57,57,57,57,57,57,57,57,57,57,57,57,57,57,57,57,57,57,57,57,57,57,57,57,57,57,57,57,57,57,57,57,57,57,57,57,57,57,57,57,57,57,57,57,57,57,57,57,57,57,57,57,57,57,57,57,57,57,57,57,57,57,57,57,57,57,57,57,57,57,57,57,57,57,57,57,57,57,57,57,57,57,57,57,57,57,57,57,57,57,57,57,57,57,57,57,57,57,57,57,57,57,57,57,57,57,57,57,57,57,57,57,57,57,57,57,57,57,57,57,57,57,57,57,57,57,57,57,57,57,57,57,57,57,57,57,57,57,57,57,57,57,57,57,57,57,57,57,57,57,57,57,57,57,57,57,57,57,57,57,57,57,57,57,57,57,57,57,57,57,57,57,57,57,57,57,57,57,57,57,57,57,57,57,57,57,57,57,57,57,57,57,57,57,57,57,57,57,57,57,57,57,57,57,57,57,57,57,57,57,57,57,57,57,57,57,57,57,57,57,57,57,57,0,0,0,0,0,0,0,0,0,0,0,0,0,0,0,0,0,0,0,0,0,0,0,0,0,0,0,0,0,0,0,0,57,57,57,57,57,57,57,57,57,57,57,57,57,57,57,57,57,57,57,57,57,57,57,57,57,57,57,57,57,57,57,57,57,57,57,57,57,57,57,57,57,57,57,57,57,57,57,57,57,57,57,57,57,57,57,57,57,57,57,43,17,39,57,57,
57,57,57,57,57,57,57,57,57,57,57,57,57,57,57,57,57,57,57,57,57,57,57,57,57,57,57,57,57,57,57,57,57,57,57,57,57,57,57,57,57,57,57,57,57,57,57,57,57,57,57,57,57,57,57,57,57,57,57,57,57,57,57,57,57,57,57,57,57,57,57,57,57,57,57,57,57,57,57,57,57,57,57,57,57,57,57,57,57,57,57,57,57,57,57,57,57,57,57,57,57,57,57,57,57,57,57,57,57,57,57,57,57,57,57,57,57,57,57,57,57,57,57,57,57,57,57,57,57,57,57,57,57,57,57,57,57,57,57,57,57,57,57,57,57,57,57,57,57,57,57,57,57,57,57,57,57,57,57,57,57,57,57,57,57,57,57,57,57,57,57,57,57,57,57,57,57,57,57,57,57,57,57,57,57,57,57,57,57,57,57,57,57,57,57,57,57,57,57,57,57,57,57,57,57,57,57,57,57,57,57,57,57,57,57,57,57,57,57,57,57,57,57,57,0,0,0,0,0,0,0,0,0,0,0,0,0,0,0,0,0,0,0,0,0,0,0,0,0,0,0,0,0,0,0,0,57,57,57,57,57,57,57,57,57,57,57,57,57,57,57,57,57,57,57,57,57,57,57,57,57,57,57,57,57,57,57,57,57,57,57,57,57,57,57,57,57,57,57,57,57,57,57,57,57,57,57,57,57,57,57,57,57,57,57,42,17,29,57,57,
57,57,57,57,57,57,57,57,57,57,57,57,57,57,57,57,57,57,57,57,57,57,57,57,57,57,57,57,57,57,57,57,57,57,57,57,57,57,57,57,57,57,57,57,57,57,57,57,57,57,57,57,57,57,57,57,57,57,57,57,57,57,57,57,57,57,57,57,57,57,57,57,57,57,57,57,57,57,57,57,57,57,57,57,57,57,57,57,57,57,57,57,57,57,57,57,57,57,57,57,57,57,57,57,57,57,57,57,57,57,57,57,57,57,57,57,57,57,57,57,57,57,57,57,57,57,57,57,57,57,57,57,57,57,57,57,57,57,57,57,57,57,57,57,57,57,57,57,57,57,57,57,57,57,57,57,57,57,57,57,57,57,57,57,57,57,57,57,57,57,57,57,57,57,57,57,57,57,57,57,57,57,57,57,57,57,57,57,57,57,57,57,57,57,57,57,57,57,57,57,57,57,57,57,57,57,57,57,57,57,57,57,57,57,57,57,57,57,57,57,57,57,57,57,0,0,0,0,0,0,0,0,0,0,0,0,0,0,0,0,0,0,0,0,0,0,0,0,0,0,0,0,0,0,0,0,57,57,57,57,57,57,57,57,57,57,57,57,57,57,57,57,57,57,57,57,57,57,57,57,57,57,57,57,57,57,57,57,57,57,57,57,57,57,57,57,57,57,57,57,57,57,57,57,57,57,57,57,57,57,57,57,57,57,57,37,17,40,57,57,
57,57,57,57,57,57,57,57,57,57,57,57,57,57,57,57,57,57,57,57,57,57,57,57,57,57,57,57,57,57,57,57,57,57,57,57,57,57,57,57,57,57,57,57,57,57,57,57,57,57,57,57,57,57,57,57,57,57,57,57,57,57,57,57,57,57,57,57,57,57,57,57,57,57,57,57,57,57,57,57,57,57,57,57,57,57,57,57,57,57,57,57,57,57,57,57,57,57,57,57,57,57,57,57,57,57,57,57,57,57,57,57,57,57,57,57,57,57,57,57,57,57,57,57,57,57,57,57,57,57,57,57,57,57,57,57,57,57,57,57,57,57,57,57,57,57,57,57,57,57,57,57,57,57,57,57,57,57,57,57,57,57,57,57,57,57,57,57,57,57,57,57,57,57,57,57,57,57,57,57,57,57,57,57,57,57,57,57,57,57,57,57,57,57,57,57,57,57,57,57,57,57,57,57,57,57,57,57,57,57,57,57,57,57,57,57,57,57,57,57,57,57,57,57,0,0,0,0,0,0,0,0,0,0,0,0,0,0,0,0,0,0,0,0,0,0,0,0,0,0,0,0,0,0,0,0,57,57,57,57,57,57,57,57,57,57,57,57,57,57,57,57,57,57,57,57,57,57,57,57,57,57,57,57,57,57,57,57,57,57,57,57,57,57,57,57,57,57,57,57,57,57,57,57,57,57,57,57,57,57,57,57,57,57,57,57,17,39,57,57,
57,57,57,57,57,57,57,57,57,57,57,57,57,57,57,57,73,80,72,63,63,63,63,64,64,64,66,67,68,57,57,57,57,57,57,57,57,57,57,57,57,57,57,57,57,57,57,57,57,57,57,57,57,57,57,57,57,57,57,57,57,57,57,57,57,57,57,57,57,57,57,57,57,57,57,57,57,57,57,57,57,57,57,57,57,57,57,57,57,57,57,57,57,57,57,57,57,57,57,57,57,57,57,57,57,57,57,57,57,57,57,57,57,57,57,57,57,57,57,57,57,57,57,57,57,57,57,57,57,57,57,57,57,57,57,57,57,57,57,57,57,57,57,57,57,57,57,57,57,57,57,57,57,57,57,57,57,57,57,57,57,57,57,57,57,57,57,57,57,57,57,57,57,57,57,57,57,57,57,57,57,57,57,57,57,57,57,57,57,57,57,57,57,57,57,57,57,57,57,57,57,57,57,57,57,57,57,57,57,57,57,57,57,57,57,57,57,57,57,57,57,57,57,57,0,0,0,0,0,0,0,0,0,0,0,0,0,0,0,0,0,0,0,0,0,0,0,0,0,0,0,0,0,0,0,0,57,57,57,57,57,57,57,57,57,57,57,57,57,57,57,57,57,57,57,57,57,57,57,57,57,57,57,57,57,57,57,57,57,57,57,57,57,57,57,57,57,57,57,57,57,57,57,57,57,57,57,57,57,57,57,57,57,57,57,57,17,29,57,57,
57,57,57,57,57,57,57,57,57,57,57,57,57,57,73,80,79,71,57,57,57,57,57,74,74,74,57,77,78,67,68,57,57,57,57,57,57,57,57,57,57,57,57,57,57,57,57,57,57,57,57,57,57,57,57,57,57,57,57,57,57,57,57,57,57,57,57,57,57,57,57,57,57,57,57,57,57,57,57,57,57,57,57,57,57,57,57,57,57,57,57,57,57,57,57,57,57,57,57,57,57,57,57,57,57,57,57,57,57,57,57,57,57,57,57,57,57,57,57,57,57,57,57,57,57,57,57,57,57,57,57,57,57,57,57,57,57,57,57,57,57,57,57,57,57,57,57,57,57,57,57,57,57,57,57,57,57,57,57,57,57,57,57,57,57,57,57,57,57,57,57,57,57,57,57,57,57,57,57,57,57,57,57,57,57,57,57,57,57,57,57,57,57,57,57,57,57,57,57,57,57,57,57,57,57,57,57,57,57,57,57,57,57,57,57,57,57,57,57,57,57,57,57,57,0,0,0,0,0,0,0,0,0,0,0,0,0,0,0,0,0,0,0,0,0,0,0,0,0,0,0,0,0,0,0,0,57,57,57,57,57,57,57,57,57,57,57,57,57,57,57,57,57,57,57,57,57,57,57,57,57,57,57,57,57,57,57,57,57,57,57,57,57,57,57,57,57,57,57,57,57,57,57,57,57,57,57,57,57,57,57,57,57,57,57,57,17,39,57,57,
32,32,32,32,32,32,33,34,63,63,63,63,63,63,70,71,57,57,57,57,57,57,57,74,74,74,57,57,57,77,69,63,63,63,57,57,57,57,57,57,57,57,57,57,57,57,57,57,57,57,57,57,57,57,57,57,57,57,57,57,57,57,57,57,57,57,57,57,57,57,57,57,57,57,57,57,57,57,57,57,57,57,57,57,57,57,57,57,57,57,57,57,57,57,57,57,57,57,57,57,57,57,57,57,57,57,57,57,57,57,57,57,57,57,57,57,57,57,57,57,57,57,57,57,57,57,57,57,57,57,57,57,57,57,57,57,57,57,57,57,57,57,57,57,57,57,57,57,57,57,57,57,57,57,57,57,57,57,57,57,57,57,57,57,57,57,57,57,57,57,57,57,57,57,57,57,57,57,57,57,57,57,57,57,57,57,57,57,57,57,57,57,57,57,57,57,57,57,57,57,57,57,57,57,57,57,57,57,57,57,57,57,57,57,57,57,57,57,57,57,57,57,57,57,0,0,0,0,0,0,0,0,0,0,0,0,0,0,0,0,0,0,0,0,0,0,0,0,0,0,0,0,0,0,0,0,57,57,57,57,57,57,57,57,57,57,57,57,57,57,57,57,57,57,57,57,57,57,57,57,57,57,57,57,57,57,57,57,57,57,57,57,57,57,57,57,57,57,57,57,57,57,57,57,49,44,44,49,48,48,48,49,49,49,47,49,47,48,47,48
</data>
 </layer>
 <objectgroup id="2" name="entities">
  <object id="1" name="player1" type="player" x="16" y="96" width="16" height="32"/>
  <object id="7" name="eagle" type="enemy" x="512" y="32" width="20" height="18">
   <properties>
    <property name="dir" type="int" propertytype="dir" value="1"/>
   </properties>
  </object>
  <object id="8" name="tumble" type="enemy" x="1600.18" y="123.818" width="28" height="20"/>
  <object id="29" name="eagle" type="enemy" x="976" y="16" width="20" height="18">
   <properties>
    <property name="dir" type="int" propertytype="dir" value="1"/>
   </properties>
  </object>
  <object id="30" name="eagle" type="enemy" x="896" y="48" width="20" height="18">
   <properties>
    <property name="dir" type="int" propertytype="dir" value="1"/>
   </properties>
  </object>
  <object id="33" name="tumble" type="enemy" x="3136" y="91.3333" width="28" height="20"/>
  <object id="37" name="eagle" type="enemy" x="2368" y="16" width="20" height="18">
   <properties>
    <property name="dir" type="int" propertytype="dir" value="1"/>
   </properties>
  </object>
  <object id="38" name="scorpion" type="enemy" x="2672" y="128" width="24" height="16">
   <properties>
    <property name="dir" type="int" propertytype="dir" value="0"/>
   </properties>
  </object>
  <object id="39" name="rock3" type="object" x="2400" y="128" width="16" height="16"/>
  <object id="40" name="item" type="object" x="1360" y="16" width="16" height="16">
   <properties>
    <property name="spare" type="int" propertytype="items" value="1"/>
   </properties>
  </object>
  <object id="41" name="checkpoint" type="trigger" x="2736" y="112" width="16" height="30">
   <properties>
    <property name="dir" type="int" propertytype="dir" value="1"/>
   </properties>
  </object>
  <object id="42" name="scorpion" type="enemy" x="4752" y="128" width="24" height="16">
   <properties>
    <property name="dir" type="int" propertytype="dir" value="0"/>
   </properties>
  </object>
  <object id="43" name="scorpion" type="enemy" x="4928" y="128" width="24" height="16">
   <properties>
    <property name="dir" type="int" propertytype="dir" value="0"/>
   </properties>
  </object>
  <object id="44" name="scorpion" type="enemy" x="4848" y="128" width="24" height="16">
   <properties>
    <property name="dir" type="int" propertytype="dir" value="0"/>
   </properties>
  </object>
  <object id="45" name="item" type="object" x="5024" y="32" width="16" height="16">
   <properties>
    <property name="spare" type="int" propertytype="items" value="1"/>
   </properties>
  </object>
  <object id="48" name="stopScroll" type="trigger" x="1040" y="128" width="16" height="16">
   <properties>
    <property name="spare" type="int" propertytype="stopScroll" value="4"/>
   </properties>
  </object>
  <object id="49" name="stopScroll" type="trigger" x="1936" y="144" width="16" height="16">
   <properties>
    <property name="spare" type="int" propertytype="stopScroll" value="4"/>
   </properties>
  </object>
  <object id="50" name="wagon" type="platform" x="144" y="288" width="16" height="12"/>
  <object id="51" name="bat" type="enemy" x="352" y="240" width="16" height="16">
   <properties>
    <property name="dir" type="int" propertytype="dir" value="0"/>
   </properties>
  </object>
  <object id="64" name="indian_bow" type="enemy" x="272" y="96" width="16" height="32">
   <properties>
    <property name="dir" type="int" propertytype="dir" value="0"/>
   </properties>
  </object>
  <object id="56" name="cowboy" type="enemy" x="4256" y="96" width="18" height="32">
   <properties>
    <property name="dir" type="int" propertytype="dir" value="0"/>
   </properties>
  </object>
  <object id="57" name="cowboy" type="enemy" x="4464" y="96" width="18" height="32">
   <properties>
    <property name="dir" type="int" propertytype="dir" value="0"/>
   </properties>
  </object>
  <object id="77" name="cowboy" type="enemy" x="4640" y="96" width="18" height="32">
   <properties>
    <property name="dir" type="int" propertytype="dir" value="0"/>
   </properties>
  </object>
  <object id="60" name="tumble" type="enemy" x="1811.46" y="121.519" width="28" height="20"/>
  <object id="61" name="tumble" type="enemy" x="3281" y="90.8333" width="28" height="20"/>
  <object id="62" name="tumble" type="enemy" x="3424" y="90.3333" width="28" height="20"/>
  <object id="63" name="tumble" type="enemy" x="3552" y="91.5" width="28" height="20"/>
  <object id="66" name="indian_bow" type="enemy" x="736" y="64" width="16" height="32">
   <properties>
    <property name="dir" type="int" propertytype="dir" value="0"/>
   </properties>
  </object>
  <object id="67" name="indian_axe" type="enemy" x="2256" y="112" width="16" height="32">
   <properties>
    <property name="dir" type="int" propertytype="dir" value="0"/>
   </properties>
  </object>
  <object id="68" name="indian_axe" type="enemy" x="2864" y="112" width="16" height="32">
   <properties>
    <property name="dir" type="int" propertytype="dir" value="0"/>
   </properties>
  </object>
  <object id="72" name="indian_bow" type="enemy" x="1904" y="112" width="16" height="32">
   <properties>
    <property name="dir" type="int" propertytype="dir" value="0"/>
   </properties>
  </object>
  <object id="73" name="rock3" type="object" x="4384" y="112" width="16" height="16"/>
  <object id="76" name="rock3" type="object" x="4560" y="112" width="16" height="16"/>
  <object id="74" name="item" type="object" x="2320" y="64" width="16" height="16">
   <properties>
    <property name="spare" type="int" propertytype="items" value="0"/>
   </properties>
  </object>
  <object id="75" name="item" type="object" x="512" y="0" width="16" height="16">
   <properties>
    <property name="spare" type="int" propertytype="items" value="0"/>
   </properties>
  </object>
  <object id="81" name="dynamite" type="object" x="96.125" y="107" width="16" height="21"/>
  <object id="82" name="scorpion" type="enemy" x="3664" y="128" width="24" height="16">
   <properties>
    <property name="dir" type="int" propertytype="dir" value="0"/>
   </properties>
  </object>
  <object id="83" name="scorpion" type="enemy" x="3760" y="128" width="24" height="16">
   <properties>
    <property name="dir" type="int" propertytype="dir" value="1"/>
   </properties>
  </object>
  <object id="84" name="scorpion" type="enemy" x="3872" y="128" width="24" height="16">
   <properties>
    <property name="dir" type="int" propertytype="dir" value="0"/>
   </properties>
  </object>
  <object id="85" name="scorpion" type="enemy" x="4016" y="128" width="24" height="16">
   <properties>
    <property name="dir" type="int" propertytype="dir" value="1"/>
   </properties>
  </object>
 </objectgroup>
</map>
